X:1
T:Three Preludes on Gregorian Melodies
T:Three Preludes on Gregorian Melodies Tre Prelude Sopra Melodie Gregoriane Ⅰ
T:O.Respighi (1879-1936)
T:Ⅱ
T:Ⅲ
C:Ottorino Respighi
%%score { ( 1 5 6 ) | ( 2 4 7 8 ) | ( 3 9 ) }
L:1/8
Q:1/4=50
M:5/4
K:B
V:1 treble nm="Piano" snm="Pno."
V:5 treble 
V:6 treble 
V:2 bass 
V:4 bass 
V:7 bass 
V:8 bass 
V:3 treble 
V:9 treble 
V:1
!p!"^Molto lento." (d<e-!<(! e/d/e/f/!mp! g/!<)!f/g g<f!>(! d/e/f/e/!>)! | %1
!p! e<d- d4) (g/f/e/f/[Q:1/4=48] d2) |!mp![Q:1/4=46] (e[Q:1/4=48]f[Q:1/4=50] ge/c/ d(f/e/ d4)) | %3
"^ben cantato"!mf! (DG) !tenuto!G2 !tenuto!G2 (F/G/F/D/ E<F) | %4
 F4 (F<G)[Q:1/4=49] (GE)[Q:1/4=48](EG) | G2[Q:1/4=46] (F/D/E/F/[Q:1/4=48] E<D-)[Q:1/4=50] D4 | %6
 (D!<(!C E/G/F/G/) !tenuto!G2 !tenuto!G2 (GE!<)! | %7
 D/E/F FD E/C/D/E/"_dim." FE"^poco rit." D/E/[Q:1/4=42]F/[Q:1/4=40]E/ | %8
"^a tempo"[Q:1/4=50] (E<D-) D8) | %9
!mf! ((D<E-)[Q:1/4=46] (11:8:11E/4D/4E/4"_cresc."F/4[Q:1/4=50]G/4A/4!<(!B/4c/4d/4e/4f/4[Q:1/4=46] (9:8:9g/4f/4[Q:1/4=50]g/4a/4b/4c'/4d'/4e'/4f'/4!<)!!f![Q:1/4=46] (10:8:10g'/4f'/4[Q:1/4=50]e'/4d'/4c'/4b/4a/4g/4f/4e/4[Q:1/4=46] (12:8:11d/4e/4f/4e/4[Q:1/4=50]d/4c/4B/4A/4G/4F/4E/) | %10
 z!mp! ((d/A/-) A/dA/- Ad/A/!mf![Q:1/4=48] (7:4:7G/g/F/f/E/e/[Q:1/4=46]F/[Q:1/4=48]!>(! D/dG/)!>)! | %11
"_dolce"!p![Q:1/4=50]({/E} ef ge/c/ df/e/ d2-!<)!!<(! (9:8:9(d/4)e/4f/4g/4a/4b/4c'/4d'/4e'/4) | %12
!ff! ([dd'][gg']) !tenuto![gg']2 !tenuto![gg']2 ([ff']/[gg']/[ff']/[dd']/) ([ee']<[ff']) | %13
 !>![ff']4 ([ff']<[gg'])!<(! ([gg'][ee'])([ee'][gg'])!<)! | %14
!ff! [gg']2 ([ff']/[dd']/[ee']/[ff']/!>(!"_dim." [ee']<[dd']-!>)! [dd']3)!p! !tenuto!=A | %15
 (=A4!>(! (G/)gG/) (gg'/g/) (G/g/e)!>)! | %16
 (d/e/f)!<(! (9:8:9(f/4d/4e/4f/4g/4a/4b/4c'/4!<)!d'/4)!mf! (e'/c'/!tenuto!d'/!tenuto!e'/) (9:8:9(f'/4e'/4d'/4c'/4b/4a/4g/4f/4e/4"^poco rit."!>(! (d/e/[Q:1/4=42]^f/[Q:1/4=40]e/))!>)! | %17
[Q:1/4=50]"^a tempo"!>(! (e<d-) d8-!>)! || %18
[K:Ab]!p! [Ee]e/e/ (e/e'e/) e2[Q:1/4=48] (e/e'e/-)[Q:1/4=46] e[Q:1/4=44](e'/e/) | %19
[Q:1/4=68]"^Meno lento."!mp!"_espress." [Beb][Aa]/[Aa]/ a2 e'2 a2 e'2 | %20
!>(! [Beb][Aa]/[Aa]/!>)!!>(! a2!>)!!pp! (e'2 a2 e2)[Q:1/4=40] | %21
!mf![Q:1/4=68] [faf'][ee']/[ee']/ e'2 a'2 e'2 a2 | %22
!>(! [Beb][Aa]/!>)![Aa]/!>(! a2!>)!!pp! (e'2 a2 e2) |!mp! (df/a/) a2 (a<b) (5:4:5(a/b/c'/b/a/) b2 | %24
 (ba-) a8 | (!arpeggio![G,A]c c/B/e ec/B/ A2 B/4c/4B/4A/4B[Q:1/4=50] | %26
!mf![Q:1/4=68]!>(! B!>)!!mp!A-!>(! A2)!>)!!pp! (e2 a2 e2) | %27
!mf! (_ce e/d/_g ge/d/ c2 d/4e/4d/4c/4d |!>(! d_c-!>)! c4-)!>(! (c2 _g2)!>)! | %29
!f! ([_CE_G_c][Ee] [Ee]/[Dd]/[G_g] [Gcg][Ee]/[Dd]/ [CGc]2!<(! [Dd]/4[Ee]/4[Dd]/4[Cc]/4!<)![Dd] | %30
!f!!>(! [Dd][_C_c]-!>)!"_dim."!>(! [Cc]8)!>)!"^rit."[Q:1/4=64][Q:1/4=60][Q:1/4=55][Q:1/4=50] || %31
[K:B][Q:1/4=50]"^Tempo I.\n"!pp! (d'<e'- e'/d'/e'/f'/ g'/f'/g' g'<f' d'/e'/f'/e'/ | %32
 e'<d'- d'4) (g'/f'/e'/f'/ d'2) | (e'f' g'e'/c'/ d'f'/e'/!<(! d'4)!<)! | %34
 z d2!p!"_cresc."!<(! f2 !tenuto!e2 d2 c- | %35
 c !tenuto!c2 !tenuto!c2 !tenuto!c2 !tenuto!c2 !tenuto!c!<)! | %36
!f! !tenuto!G2 !tenuto!A2 !tenuto!B2 !tenuto!c2"_dim." !tenuto!d2 | %37
!>(! (!tenuto!e2 !tenuto!f2) (!>!ga) (!>!ab)[Q:1/4=46] (!>!b[Q:1/4=44]c')!>)![Q:1/4=40] | %38
"^a tempo"[Q:1/4=50]!p! (d>[Cc] [B,B]>[A,A] [G,G]2 [A,A]2"^poco rit."[Q:1/4=46]!<(! [B,B]>[Q:1/4=44][Q:1/4=40][Cc])!<)! | %39
"^a tempo"[Q:1/4=50]!p!!>(! ([Ee]<[Dd]-)!>)!!p! [Dd]8 | %40
!mp!!>(! (D<E)!>)!!f!!8va(! (12:8:12(e''/4d''/4c''/4b'/4a'/4"_cresc."g'/4f'/4e'/4!8va)!d'/4c'/4b/4a/4[Q:1/4=46] (9:8:9g/4f/4g/4[Q:1/4=50]f/4e/4d/4c/4B/4A/4[Q:1/4=46] (13:8:13G/4F/4[Q:1/4=50]G/4A/4B/4c/4d/4e/4f/4g/4a/4b/4c'/4[Q:1/4=46]!8va(!!<(! (14:8:13d'/4e'/4f'/4e'/4d'/4e'/4f'/4g'/4a'/4b'/4c''/4d''/4!<)!.e''/)[Q:1/4=50] | %41
"^Largamente."!ff![Q:1/4=48] ([e'e'']<[d'd'']-) [d'd'']2!8va)! [dd']2 ([gg']/[ff']/[ee']/[ff']/) [dd']2 | %42
 ([ee'][ff'] [gg'][ee']/[cc']/"_dim." [dd']!>(![ff']/[ee']/ [dd']4)!>)! | %43
"^Rallent. il tempo."[Q:1/4=46] (^ef ge/c/ d!p!f/e/ d4) |!pp! (ef ge/c/ df/e/) d4- | %45
!>(! d8!>)![Q:1/4=20] !fermata!d2[Q:1/4=10][Q:1/4=44][Q:1/4=40] |] %46
[K:E][M:2/2]"^Tempestoso."[Q:1/2=100]"^(.)"!ff!!8va(! (3[g'c'']c'[g'c''] (3c'[c'g']g (3[c'g']g!8va)![gc'] (3c[gc']c | %47
 (3[cg]G[cg] (3G[Gc]C (3[Gc]C[CG] (3G,[CG]G, | (3GG,G (3FF,F (3GG,G (3EE,E | %49
 (3[G,D]GC!<(! (3[Gc]G[cg] (3c[gc']g (3[c'g']cc'!<)! | %50
!8va(! (3[g'd'']d'[g'd''] (3d'[d'g']g (3[d'g']g!8va)![gd'] (3d[gd']d | %51
 (3[ae']e[ae'] (3e[ea]A (3[ea]A[Ae] (3E[Ae]E | (3dDd (3eEe (3fFf (3eEe | %53
 (3[dg]G[dg] (3G[dg]d (3[gd']d[gd'] (3g[d'g']g | (3[c'g']g[c'g'] (3g[gc']c (3[gc']c[cg] (3G[cg]G | %55
 (3[Gc]C[Gc] (3C[CG]G, (3[CG]G,[G,C] (3C,[G,C]G, | (3[CG]G,[CG] (3C[Gc]C (3[CG]G,[CG] (3C[Gc]C | %57
 (3[CG]G,[CG] (3C[Gc]C (3[CG]G,[CG] (3C[Gc]C | (3[CG]G,[CG] (3C[Gc]C (3[CG]G,[CG] (3C[Gc]C | %59
 (3[CG]G,[CG] (3C[Gc]C (3[CG]G,[CG] (3C[Gc]C | (3[Gd]D[Gd] (3G[dg]G (3[Gd]D[Gd] (3G[dg]G | %61
 (3[cg]G[cg] (3c[gc']c (3[cg]G[cg] (3c[gc']c | (3[cf]F[cf] (3c[fc']c (3[cf]F[cf] (3c[fc']c | %63
 (3[fc']c[fc'] (3f[c'f']f (3[fc']c[fc'] (3f[c'f']f | %64
 (3[gd']d[gd'] (3g[d'g']g (3[ae']e[ae'] (3a[e'a']a | %65
 (3[gd']d[gd'] (3g[c'g']g (3[gc']c[gc'] (3e[ae']e |!ff! g4 g2 (3:2:2x f2 | e4 e2 (3:2:2x d2 | %68
 c4 c2 (3:2:2x B2 | A4"_dim." A2 (3:2:2x G2 | =G4 G2 (3:2:2x F2 |[K:bass] E4 E4 |!>(! D4 D4!>)! | %73
!mf! =D4 C4 | =C4 B,4 | _B,4- B,4 |!>(! A,4- A,4!>)! || %77
[K:C]"^più vivo."!pp![Q:1/2=110][I:staff +1] (3[C,,E,,][I:staff -1]([E,A,]A,,)[I:staff +1] (3[C,,E,,][I:staff -1]([E,A,]A,,)[I:staff +1] (3[C,,E,,][I:staff -1]([E,A,]A,,)[I:staff +1] (3[C,,E,,][I:staff -1]([E,A,]A,,) | %78
!<(![I:staff +1] (3E,,[I:staff -1][E,A,]A,,[I:staff +1] (3F,,[I:staff -1][F,_B,]!<)!_B,,!f![I:staff +1] (3G,,!>(![I:staff -1][G,C]C,[I:staff +1] (3F,,[I:staff -1][F,B,]!>)!B,, | %79
!p![I:staff +1] (3E,,[I:staff -1][E,A,]A,,[I:staff +1] (3A,,[I:staff -1][A,E]E,[I:staff +1] (3A,,[I:staff -1][A,E]E,[I:staff +1] (3A,,[I:staff -1][A,E]E, | %80
!<(![I:staff +1] (3A,,[I:staff -1][A,E]E,[I:staff +1] (3_B,,[I:staff -1][_B,F]!<)!F,!f![I:staff +1] (3C,!>(![I:staff -1][CG]G,[I:staff +1] (3B,,[I:staff -1][B,F]F,!>)! | %81
!p![I:staff +1] (3A,,[I:staff -1][A,E]E,[K:treble][I:staff +1] (3E,!<(![I:staff -1][EA]A,[I:staff +1] (3D,"^cresc."[I:staff -1][DG]G,[I:staff +1] (3F,[I:staff -1][F_B]!<)!_B, | %82
[I:staff +1] (3E,[I:staff -1][EA]A,[I:staff +1] (3A,!<(![I:staff -1][Ae]E[I:staff +1] (3G,[I:staff -1][Gd]D[I:staff +1] (3_B,[I:staff -1][_Bf]F!<)! | %83
 (3A,[Ae]E!<(![I:staff +1] (3E[I:staff -1][ea]A[I:staff +1] (3D[I:staff -1][dg]G[I:staff +1] (3F!<)![I:staff -1][f_b]_B | %84
[I:staff +1] (3E[I:staff -1][ea]A[I:staff +1] (3D[I:staff -1][dg]G[I:staff +1] (3F[I:staff -1][f_b]_B[I:staff +1] (3E[I:staff -1][ea]A | %85
[I:staff +1] (3E[I:staff -1][ea]A[I:staff +1] (3D[I:staff -1][dg]G[I:staff +1] (3E[I:staff -1][ea]A[I:staff +1] (3D[I:staff -1][dg]G | %86
[I:staff +1] (3E[I:staff -1][ea]A[I:staff +1] (3D[I:staff -1][dg]G[I:staff +1] (3E[I:staff -1][ea]A[I:staff +1] (3D[I:staff -1][dg]G | %87
!f! (3[ea]A[ea] (3e[ae']e (3[ea]A[ea] (3e[ae']e | (3[ea]A[ea] (3e[ae']e (3[ea]A[ea] (3e[ae']e | %89
 (3[ea]A[ea] (3e[ae']e (3[ea]A[ea] (3e[ae']e | (3[ea]A[ea] (3e[ae']e (3[ea]A[ea] (3e[ae']e | %91
 (3[Ae]F[Ae] (3A"_dim."[ea]A (3[Ae]F[Ae] (3A[ea]A | %92
!>(! (3[Ae]F[Ae] (3A[ea]A (3[Ae]E[Ae] (3E[EA]A, | (3[DA]A,[DA] (3D[Ad]D (3[DA]A,[DA] (3D[Ad]D | %94
 (3[DA]A,[DA][K:bass] (3A,[A,D]F, (3[A,D]F,[A,D] (3F,[A,D]F,!>)! | %95
!<(![I:staff +1] (3E,[I:staff -1]EE,[I:staff +1] (3E,[I:staff -1]EE,[I:staff +1] (3E,[I:staff -1]EE,[I:staff +1] (3E,[I:staff -1]E!<)!E, | %96
!f!!>(![I:staff +1] (3[E,,E,][I:staff -1]EE,[I:staff +1] (3[D,,D,][I:staff -1]DE,[I:staff +1] (3[C,,C,][I:staff -1]CE,[I:staff +1] (3[_B,,,_B,,][I:staff -1]_B,E, | %97
[I:staff +1] (3[A,,,A,,][I:staff -1]A,E,[I:staff +1] (3[G,,,G,,][I:staff -1]G,E,[I:staff +1] (3[F,,,F,,][I:staff -1]F,!>)!E,!p![I:staff +1] [E,,,E,,][I:staff -1]E, | %98
!ff! z2 (3z[K:treble]!<(! [Be]E (3[Be]B[eb]!<)!!>(! (3B[Be]E!>)! | %99
!<(![I:staff +1] (9:4:15(1:1:3B,[I:staff -1][EB]B,[I:staff +1] (1:1:3E[I:staff -1][Be]E[I:staff +1] (1:1:3F[I:staff -1][cf]!<)!F[I:staff +1] (0:0:3G[I:staff -1][dg]G (0:0:3[dg]d[gd'] | %100
[I:staff +1] (3G[I:staff -1][dg]G[I:staff +1] (3F[I:staff -1][cf]F[I:staff +1] (3G[I:staff -1][dg]G[I:staff +1] (3E[I:staff -1][Be]E | %101
[I:staff +1] (3E[I:staff -1][Be]E[I:staff +1] (3B,[I:staff -1][EB]B,[I:staff +1] (3E[I:staff -1][Be]E (3z [^A^d]^D | %102
 z2 (3z [=da]A (3[da]d[ad'] (3d[da]A | %103
!<(![I:staff +1] (9:4:15(1:1:3A,[I:staff -1][DA]A,[I:staff +1] (1:1:3D[I:staff -1][Ad]D[I:staff +1] (1:1:3E[I:staff -1][Be]!<)!E[I:staff +1] (0:0:3F[I:staff -1][_B_e]_E (0:0:3[Be]B[e_b] | %104
[I:staff +1] (3!>!F[I:staff -1][cf]F[I:staff +1] (3E[I:staff -1][Be]E[I:staff +1] (3F[I:staff -1][cf]F[I:staff +1] (3D[I:staff -1][Ad]D | %105
[I:staff +1] (3!>!E[I:staff -1][Be]E[I:staff +1] (3D[I:staff -1][Ad]D[I:staff +1] (3E[I:staff -1][Be]E[I:staff +1] (3B,[I:staff -1][Ed]B, | %106
[I:staff +1] (3!>!F[I:staff -1][cf]F[I:staff +1] (3E[I:staff -1][Be]E[I:staff +1] (3F[I:staff -1][cf]F[I:staff +1] (3D[I:staff -1][Ad]D | %107
[I:staff +1] (3!>!E[I:staff -1][Be]E[I:staff +1] (3D[I:staff -1][Ad]D[I:staff +1] (3E[I:staff -1][Be]E[I:staff +1] (3B,[I:staff -1][Ed]B, | %108
[I:staff +1] (3!>!G[I:staff -1][dg]G[I:staff +1] (3F[I:staff -1][cf]F[I:staff +1] (3!>!A[I:staff -1][ea]A[I:staff +1] (3G[I:staff -1][dg]G | %109
[I:staff +1] (3!>!B[I:staff -1][fb]B[I:staff +1] (3A[I:staff -1][ea]A[I:staff +1] (3!>!c[I:staff -1][gc']c[I:staff +1] (3B[I:staff -1][fb]B | %110
!ff![I:staff +1] (3!>!d[I:staff -1][ad']d[I:staff +1] (3c[I:staff -1][gc']c[I:staff +1] (3!>!B[I:staff -1][fb]B[I:staff +1] (3A[I:staff -1][ea]A | %111
[I:staff +1] (3G[I:staff -1][dg]G[I:staff +1] (3F[I:staff -1][cf]F[I:staff +1] (3E[I:staff -1][Be]E[I:staff +1] (3D[I:staff -1][Ad]D | %112
[I:staff +1] (3!>!G[I:staff -1][dg]G[I:staff +1] (3F[I:staff -1][cf]F[I:staff +1] (3F[I:staff -1][cf]F[I:staff +1] (3E[I:staff -1][Be]E | %113
[I:staff +1] (3!>!G[I:staff -1][dg]G[I:staff +1] (3F[I:staff -1][cf]F[I:staff +1] (3F[I:staff -1][cf]F[I:staff +1] (3E[I:staff -1][Be]E | %114
[I:staff +1] (3!>!F[I:staff -1][cf]F[I:staff +1] (3E[I:staff -1][Be]E[I:staff +1] (3!>!F[I:staff -1][cf]F[I:staff +1] (3E[I:staff -1][Be]E | %115
[I:staff +1] (3!>!F[I:staff -1][cf]F[I:staff +1] (3E[I:staff -1][Be]E[I:staff +1] (3!>!F[I:staff -1][cf]F[I:staff +1] (3E[I:staff -1][Be]E | %116
[I:staff +1] (3F[I:staff -1][cf]F[I:staff +1] (3B,"_dim."[I:staff -1][AB]E[I:staff +1] (3F[I:staff -1][cf]F[I:staff +1] (3B,[I:staff -1][AB]E | %117
!>(![I:staff +1] (3F[I:staff -1][cf]F[I:staff +1] (3B,[I:staff -1][AB]E[I:staff +1] (3F[I:staff -1][cf]F[I:staff +1] (3B,[I:staff -1][AB]E | %118
[I:staff +1] (3(^F[I:staff -1][Be]E[I:staff +1] (3B,[I:staff -1][AB]E[I:staff +1] (3F[I:staff -1][Be]E[I:staff +1] (3B,[I:staff -1][AB]E | %119
[Q:1/2=106][I:staff +1] (3^F[I:staff -1][Be]E[I:staff +1] (3B,[I:staff -1][AB]E[I:staff +1] (3F[I:staff -1][Be]E[I:staff +1] (3B,)!>)![I:staff -1][AB]E | %120
[Q:1/2=102] x4[Q:1/2=98]!>(! (6:4:6^FEFB,[FB]E | %121
[Q:1/2=94] (6:4:6(E^FE[Be]AE[Q:1/2=90] (6:4:6FEFB,[FB]!>)!E)[Q:1/2=60] || %122
[K:E][Q:1/2=88]"^(\n)\n""^Vivo non troppo."!p! (6:4:6(EFE[Be]AE (6:4:6FEFB,[FB]E) | %123
 (6:4:6(EFE[Be]AE (6:4:6FEFB,[FB]E) | (6:4:6(EFE[Be]AE (6:4:6ABA[fa]eA)[Q:1/2=60] | %125
[Q:1/2=88] (6:4:6(cdc[gc']fc (6:4:6dcdG[dg]c) | (6:4:6(BcB[db]cB (6:4:6G^AG[Ad]GD) | %127
 (6:4:6(G^AG[cg]BG (6:4:6cBcB[fb]e) | (6:4:6(cdc[gc']fc (6:4:6dcdA[da]c) | %129
 (6:4:6(BcB[fb]eB (6:4:6cBcE[ce]B) | (6:4:6(efe[be']ae (6:4:6fefB[fb]e) | %131
 (6:4:6(cdc[gc']fc (6:4:6dcdF[df]c) | (6:4:6(BcB[fb]eB (6:4:6cBcE[ce]B) | %133
!f! (6:4:6(EFE[Be]AE (6:4:6FEFB,[FB]E) | (6:4:6(B,CB,[FB]EB,[K:bass] (6:4:6CB,CE,[CE]B,) | %135
 (6:4:6(E,F,E,"_dim."[F,B,]E,B,, (6:4:6C,B,,C,G,,[C,G,]B,,) |!>(! z8!>)! | %137
[K:treble]!p! E4 (3E2 G2 B2 | B4 (B G3) |!<(! !arpeggio!c4 (cd e2) | c4 (c B2) [Bb] | %141
 ((!arpeggio![Gegb] [cc']3)) ([cc'][Bb] [Gg]2) | (!arpeggio![Geb]2 g2) [Bb][cc'] [dd']2 | %143
 c'4 ([cc'][Bb] [cc']2) | (g2 e2) [Ee][Ff] [Gg]2 | b2 ([Gg][Ff] [Gg]2 [Ff]2) | %146
 !arpeggio![FGBf]4 [Ee][Ff] [Gg]2 | !arpeggio![FGBf]4 (!>![Ff] [Ee]3)!<)! | %148
[K:bass]!ff! (6:4:6(E,F,E,[F,B,]E,B,, (6:4:6F,"_cresc."E,F,E,[CE]B,) | %149
[K:treble] (6:4:6(B,CB,"^string."[FB]EB,[Q:1/2=90] (6:4:6FEFE[ce]B) | %150
[Q:1/2=92] (6:4:6(BcB[fb]eB[Q:1/2=94] (6:4:6fefe[c'e']b) | %151
[Q:1/2=96] (6:4:6(bc'b[f'b']e'b[Q:1/2=98]!8va(! (6:4:6f'e'f'e'[c''e'']b')!8va)! || %152
!ff!"^Tempo Ⅰ."[Q:1/2=100]!8va(! (3[g'c'']c'[g'c''] (3c'[c'g']g (3[c'g']g!8va)![gc'] (3c[gc']c | %153
 (3[cg]G[cg] (3G[Gc]C (3[Gc]C[CG] (3G,[CG]G, | (3GG,G (3FF,F (3GG,G (3EE,E | %155
 (3[G,D]GC!<(! (3[Gc]G[cg] (3c[gc']g (3[c'g']cc'!<)! | %156
!8va(! (3[g'd'']d'[g'd''] (3d'[d'g']g (3[d'g']g!8va)![gd'] (3d[gd']d | %157
 (3[ae']e[ae'] (3e[ea]A (3[ea]A[Ae] (3E[Ae]E | (3dDd (3eEe (3fFf (3eEe | %159
 (3[dg]G[dg] (3G[dg]d (3[gd']d[gd'] (3g[d'g']g | (3[c'g']g[c'g'] (3g[gc']c (3[gc']c[cg] (3G[cg]G | %161
 (3[Gc]C[Gc] (3C[CG]G, (3[CG]G,[G,C] (3C,[G,C]G, | (3[CG]G,[CG] (3C[Gc]C (3[CG]G,[CG] (3C[Gc]C | %163
 (3[CG]G,[CG] (3C[Gc]C (3[CG]G,[CG] (3C[Gc]C | (3[CG]G,[CG] (3C[Gc]C (3[CG]G,[CG] (3C[Gc]C | %165
 (3[CG]G,[CG] (3C[Gc]C (3[CG]G,[CG] (3C[Gc]C | (3[Gd]D[Gd] (3G[dg]G (3[Gd]D[Gd] (3G[dg]G | %167
 (3[cg]G[cg] (3c[gc']c (3[cg]G[cg] (3c[gc']c | (3[cf]F[cf] (3c[fc']c (3[cf]F[cf] (3c[fc']c | %169
 (3[fc']c[fc'] (3f[c'f']f (3[fc']c[fc'] (3f[c'f']f | %170
 (3[gd']d[gd'] (3g[d'g']g (3[ae']e[ae'] (3a[e'a']a | %171
 (3[gd']d[gd'] (3g[c'g']g (3[gc']c[gc'] (3e[ae']e |!ff! (3gGg (3GgG (3gGg (3GgG | %173
 (3gGg (3GgG (3gGg (3GfF | (3eEe (3EeE (3eEe (3EeE | (3eEe (3EeE (3eEe (3EdD | %176
 (3cCc (3CcC (3cCc (3CcC | (3cCc (3CcC (3cCc (3CBB, | (3AA,A (3A,AA, (3AA,A (3A,AA, | %179
 (3AA,A (3A,AA, (3AA,A (3A,GG, | (3GG,G (3G,GG, (3GG,G (3G,GG, | %181
[K:bass] (3G,G,,G, (3G,,G,G,, (3G,G,,G, (3G,,G,G, | (3GG,G (3G,GG, (3GG,G (3G,GG, | %183
 (3G,G,,G, (3G,,G,G,, (3G,G,,G, (3G,,G,G, |[K:treble] (3GG,G (3G,GG,"_dim." z4 | %185
!f! (3GG,G (3G,GG, z4 |[K:bass]!f! (3!>!G,G,,G, (3G,,G,G,, z4 |!mf! (3!>!G,G,,G, (3G,,G,G,, z4 | %188
!mf! (3!>!G,G,,G, (3G,,G,G,, z4 |!mp! (3!>!G,G,,G, (3G,,G,G,, z4 |!mp! (3!>!G,G,,G, (3G,,G,G,, z4 | %191
!p! (3!>!G,G,,G, (3G,,G,G,, z4 || %192
[K:C#][M:8/4][K:treble]"^Largo."!p![Q:1/4=90]"^(espressiva la melodia)" x16 x8[Q:1/4=120][Q:1/4=160][Q:1/4=80][Q:1/4=160][Q:1/4=80] | %193
[Q:1/4=80] !tenuto!g2 !tenuto!f2 !tenuto!g2[Q:1/4=160] !tenuto!e2[Q:1/4=100] x8 x4 x3[Q:1/4=120][Q:1/4=160][Q:1/4=80][Q:1/4=160][Q:1/4=80] | %194
[Q:1/4=160] x2[Q:1/4=180] x2 x3/2[Q:1/4=80] g2 =b2 g2 f[Q:1/4=160]e[Q:1/4=120] x3/2[Q:1/4=160] x2[Q:1/4=110] x2[Q:1/4=160] x2 x3/2[Q:1/4=80] x6[Q:1/4=160] | %195
[Q:1/4=120] x16 x4 x2 x x/[Q:1/4=160][Q:1/4=80][Q:1/4=160][Q:1/4=160][Q:1/4=80][Q:1/4=120] | %196
[Q:1/4=160] x4[Q:1/4=80] z4 z4!pp! ([G,DG]4 [F,CF]2[K:bass] [D,CD]2) | %197
 !tenuto![E,CE]4[Q:1/4=76] !tenuto![D,CD]4[Q:1/4=72]!>(! !tenuto![C,G,C]8!>)! | %198
[K:treble]"^(Lento l'arpettio.)"[Q:1/4=100]!pp! x4[Q:1/4=200] x4 x3[Q:1/4=64]!pp! (c' e'3) (3!tenuto!c'!tenuto!e'!tenuto!f' !tenuto!g'2- g'8[Q:1/4=150] | %199
!pp![Q:1/4=150] x4[Q:1/4=200] x4 x3[Q:1/4=64]!pp! (!tenuto!g'!tenuto!f'!tenuto!g'!tenuto!e') (d' c'3-) c'8 | %200
!pp![Q:1/4=150] x4[Q:1/4=200] x4 x3!pp![Q:1/4=64]!8va(! (a'c''a'g'/f'/) (g' d'3)!8va)![Q:1/4=150] x4[Q:1/4=200] x4 x3[Q:1/4=64] (!tenuto!d'!tenuto!e'!tenuto!f'!tenuto!e') !tenuto!g'2 (!tenuto!f'!tenuto!d') | %201
[M:12/4] !tenuto!e'2 !tenuto!d'2 !tenuto!c'4 [CD][CE][CF][Q:1/4=60][CE] [CG]2[Q:1/4=56] [CF][CD][Q:1/4=52] !tenuto![CE]4[Q:1/4=48] !tenuto![CD]4 || %202
[K:E][M:2/2][K:bass][Q:1/2=100]"^Tempo Ⅰ." x4 (3C,2- G,2- C2- | [C,G,C]8- | [C,G,C]8- | %205
 [C,G,C]4[K:treble] (3C2 E2 G2 | G4 (G E3) | !arpeggio!A4 (AB c2) |!<(! A4 (([A,A] [G,G]2)) [Gg] | %209
 ((!arpeggio![Gceg] [Aa]3)) ([Aa][Gg] [Ee]2) | (!arpeggio![Ecg]2 e2) [Ee][Ff] [Gg]2 | %211
 a4 ([Aa][Gg] [Aa]2) | (e2 c2) ([Cc][Dd] [Ee]2) | (g2 [Ee][Dd]) ([Ee]2 [Dd]2) | %214
 !arpeggio![DEGd]4 ([Cc][Dd] [Ee]2) | !arpeggio![DEGd]4 (!>![Dd] [Cc]3)!<)! | %216
[K:bass]!f! (6:4:6(C,D,C,[D,G,]C,G,, (6:4:6D,C,D,C,[A,C]G,) | %217
 (6:4:6(G,A,G,[DG]CG,[K:treble] (6:4:6DCDC[Ac]G) | (6:4:6(GAG[dg]cG (6:4:6dcdc[ac']g) | %219
 (6:4:6(gag[d'g']c'g!8va(! (6:4:6d'c'd'c'[a'c'']g') | %220
 (6:4:6(g'a'g'[d''g'']c''g' (6:4:6a'g'a'c'[a'c'']g') | %221
!<(! (6:4:6(g'a'g'[d''g'']c''g' (6:4:6a'g'a'c'[a'c'']g') | %222
 (6:4:6(g'a'g'[d''g'']c''g' (6:4:6a'g'a'c'[a'c'']g')!<)! | %223
!ff! !arpeggio![g'c''g'']!8va)! z z2!fff![I:staff +1] !^!C,4 | %224
"^m.s."[Q:1/2=80]!8va(![I:staff -1] !fermata![egc'e'c'']8!8va)![Q:1/2=100][Q:1/2=20] |] %225
[K:A][M:5/4]"^Lento."[Q:1/4=66]!p! ([cc'][cc'] [cc']>[cc'] [cc'][cc'][cc'][cc'] [cc']>[Q:1/4=50]!tenuto![cc']) | %226
!pp![Q:1/4=66] ([cc'][cc'] [cc']>[cc'] [cc'][cc'][cc'][cc'] [cc']>[cc']) | %227
 [cc'][cc'] c>c [cc'][cc'][cc'][cc'] c>[cc'] | c[cc'] [cc']>[cc'] [cc']ccc[cc']>[cc'] | %229
 [cc'][cc'] [cc']>[cc'] [cc'][cc'][cc'][cc'][cc']>[cc'] | %230
"_espress." ([cc'][Bcb]!<(!"_cresc." [Aca]>!tenuto![Gcg])!mp! !tenuto![Fcf]!tenuto![Ece]!tenuto![Dcd]!tenuto![Ee]!mp! [Fcf]>!tenuto![Ece] | %231
!mf! ([cc'][Bcb] [Aca]>!tenuto![Gcg]) !tenuto![Fcf]!tenuto![Ece]!tenuto![Dcd]!tenuto![Ee] [Fcf]>!tenuto![Ece]!<)! | %232
!f! ([Ee][Dd])[Q:1/4=64] ([Dd]>!>(!!tenuto![Dd])[Q:1/4=60] ([Dd][Cc][B,B][A,A])[Q:1/4=54] ([G,G]>[Q:1/4=50]!tenuto![F,F])!>)! | %233
!f![Q:1/4=66]!>(! [F,CF][F,F]"_dim." [F,F]>[F,F] [F,F][F,F][F,F][F,F] [F,F]>[F,F]!>)! | %234
!p! [F,F][F,F] [F,F]>[F,F] [F,F][F,F][F,F][F,F] [F,F]>[F,F] | %235
 [F,F][F,F] [F,F]>[F,F] [F,F][F,F][F,F][F,F] [F,F]>[Q:1/4=90][F,F] | %236
[Q:1/4=60] x/4[Q:1/4=66] (FA"_cresc." c2)"_molto" (Ac f2)[Q:1/4=64] !tenuto![Ff]2[Q:1/4=90] | %237
[Q:1/4=60] x/4[Q:1/4=66] [Gcg]4 ([Aca]4- [Aca][Q:1/4=80][Bb]) | %238
[Q:1/4=60] x/4[Q:1/4=66] g<f- f2 e/f/g- (3gfe f2[Q:1/4=120] | %239
[Q:1/4=60] x/4[Q:1/4=66]!f!!<(! g<f- f2 e/f/g-[Q:1/4=64]"^poco rit.ト" (3gfe!<)![Q:1/4=62]!>(! f2!>)![Q:1/4=120] | %240
!mf![Q:1/4=80] x/[Q:1/4=66]"^a tempo"!>(! [cgc'][cc'][cc']3/2!>)!!p! [cc']/ [cc'][cc'][cc'][cc'][cc']>[cc'] | %241
 [cc'][cc'] [cc']>[cc'] [cc'][cc'][cc'][cc'] [cc']>[cc'] | %242
 [cc'][cc'] [cc']>[cc'] [cc'][cc'][cc'][cc'] [cc']>[cc'] | %243
 [cc'][cc'] [cc']>[cc'] [cc'][cc'][cc'][cc'] [cc']>[cc'] | %244
[M:7/4] [cc'][cc'][cc']>"^animando"[cc'][Q:1/4=68] [cc'][cc'][cc'][cc'][Q:1/4=70][cc']>[cc'] [cc'][cc'][cc']>[cc'] | %245
[M:5/4][Q:1/4=72] [cc'][cc'] [cc']>[cc'][Q:1/4=74] [cc'][cc'][cc'][cc'] [cc']>[cc'] | %246
[Q:1/4=66]"_a tempo"!ff! [cc'][cc'] [cc']>[cc'] [cc'][cc'][cc'][cc'] ([cc']>[^B^b]) | %247
 [=B=b][Bb]"_dim." [Bb]>[Bb]"_e poco a poco" [Bb][Bb][Bb][Bb] ([Bb]>[Aa]) | %248
 [Aa][Aa] [Aa]>[Aa] [Aa][Aa][Aa][Aa] ([Aa]>[Gg]) | %249
 [=G=g][Gg] [Gg]>[Gg] [Gg][Gg][Gg][Gg] ([Gg]>[Ff]) |!mp! (c!>(!c) c>c cccc c>[Q:1/4=120]c!>)! || %251
[K:F#][Q:1/4=60] x/!pp!"^dolce"[Q:1/4=66] (CF A2 AGAF!<(!GB | %252
 c/d/c!<)!!>(! dc!>)! G2)!<(! (A/B/c!<)!!>(! dB!>)! | c<B- B2) (A/B/c- (3cBA B2) | (B A3-) A6 | %255
 ([Gg] [Ff]3-) [Ff]4 [Ff]2 | [Dd][Dd] [Dd]>[Dd] [Dd][Dd][Dd][Dd] [Dd]>[Dd] | %257
 [Dd][Dd] [Dd]>[Dd] [Dd][Dd][Dd][Dd] [Dd]>[Dd] | %258
!p! f"_dim."f!>(!!>(! f>[ff'] [ff'][ff'][ff'][ff'] [ff']>[ff']!>)!!>)! | %259
"^Più lento."[Q:1/4=60] [ff']4 z4 z2 | %260
 [cc'][cc'] [cc']>[cc'] [cc'][cc'][cc'][cc'] [cc']>[Q:1/4=120][cc'] | x8 x2 x[Q:1/4=60][Q:1/4=56] | %262
[Q:1/4=60] z4 z2 ([cc'][cc'] [cc']>[cc']) | %263
 ([cc'][cc'] [cc']>[cc'][Q:1/4=56] [cc'][cc'][cc'][Q:1/4=60][cc'] [cc']>[cc']) | %264
[Q:1/4=120] x8 x2 x[Q:1/4=60] | x4!pp! [cc'][cc'][cc'][cc'] [cc']>[cc'] | %266
 ([cc'][cc'] [cc']>[cc']!>(! [cc'][cc']!>)![cc'][cc'] [cc']>[cc']) || %267
[K:A]"^Ancora più lento."[Q:1/4=56] z"_m.s.""^m.d." [cc'] [cc']>[cc'] z4 z2!ppp! | %268
 z2 [cc']>[cc'] [cc'][cc'][cc'][cc'][cc']>[cc'] | z10 | %270
 z2!pp! [cc']>[cc'] [cc'][cc'][cc'][cc'][cc']>[cc'] | z4 z4!ppp! [cc']>[cc'] | %272
"_morendo e rall." [cc'][cc'][Q:1/4=54][cc']>[cc'] [cc'][cc'][Q:1/4=52][cc'][cc'][Q:1/4=50][cc']>[Q:1/4=40][cc'] | %273
[Q:1/4=50] [cc']2[Q:1/4=40] [cc']2[Q:1/4=30] !fermata![cc']6 |] %274
V:2
!ped! D,,[I:staff -1](A/D/ A,/)(cD/ C)(c/D/ A,/)(AD/ G,)G/C/!ped-up! | %1
!ped![I:staff +1] x"^cresc." !tenuto!D x/ !tenuto!E3/2 x !tenuto!F x/ !tenuto!G3/2 x !tenuto!A!ped-up! | %2
!ped! !tenuto!C,,(G/C/ B,/)(BC/ D,,)[K:treble](A/D/ A,/)(cD/ C)(A/D/)!ped-up! | %3
[K:bass]!ped! !tenuto!G,,,(D/G,/ F,/)(FG,/ E,)(E/G,/ D,/)(DG,/ C,)(C/G,/!ped-up! | %4
!ped! B,,)(C/C,/ A,,/)(CC,/ G,,)(C/E,/ E,,/)(G,C,/ C,,)A,/E,/!ped-up! | %5
!ped! x2 x/ !tenuto!A,3/2 x !tenuto!B, x/ !tenuto!C3/2 x !tenuto!D!ped-up! | %6
!ped! !tenuto!G,,,(A,/E,/ G,,/)(CE,/ G,,)(B,/D,/ E,,/)(G,C,/ C,,)(G,/C,/!ped-up! | %7
!ped! D,,)(F,/B,,/ G,,/)(B,D,/ C,)(F,/E,/ F,,/)(G,!>(!E,/-) (E,G,/A,/)!ped-up!!>)! | %8
!p!!>(!!ped! D,,(A,/D,/ A,,/)!>)!(CD,/ C,)(C/D,/ A,,/)(A,D,/ G,,)(G,/D,/!ped-up! | %9
!ped!!>(! D,,)(C/!>)!G,/ D,/)(EG,/-) G,(G/C/-) C/[K:treble](cE/-) (EG,)!ped-up! | %10
[K:bass]!>(!!ped! !tenuto!D,,!>)!(A,/D,/!<(! A,,/)(CD,/ C,)(C/D,/!<)! B,,/)(B,D,/ G,,)(B,/D,/!ped-up! | %11
!ped! C,)(G/C/ G,/)(BC/ D,)[K:treble](A/D/ A,/)(cD/ C)A/D/!ped-up! | %12
[K:bass]!ped! x !tenuto!F x/ !tenuto!=A3/2 x !tenuto!G x/ !tenuto!F3/2!<(! x!<)! !tenuto!D!ped-up! | %13
!ped! x !tenuto!F x/ !tenuto!D3/2!>(! x!>)! !tenuto!^B, x/ !tenuto!C3/2 x !tenuto!E,!ped-up! | %14
!ped! [E,,,E,,](G,/E,/ ^B,,/)(D=A,/ D,)(F/^B,/ F,/)(=AD/ D,)(F/B,/!ped-up! | %15
!ped! !tenuto!G,,,)(=A,/E,/ G,,/)(CE,/ G,,)(=B,/G,/ F,/)(FG,/ E,)(G,/C,/!ped-up! | %16
!ped! !tenuto!D,,)(A,/E,/ D,/)(DA,/ C,)(E/G,/ E,/)(GC/ D,)^^F/C/!ped-up! | %17
!ped! B,,,(^F,/F,,/ D,,/)(F,A,,/ G,,)(B,/D,/ B,,/)(DF,/ D,)(F/A,/!ped-up! || %18
[K:Ab]!ped! x4) E2 E2 z2!ped-up!!ped! | %19
 (A,C/E/) E2!ped-up!!ped! ((E<F)) (5:4:5(E/F/G/F/E/) F2!ped-up! |!ped! (FE-) E8!ped-up!!ped! | %21
 (A,C) (C/B,/E) ((EC/)B,/) A,2 (B,/4C/4B,/4A,/4B,)!ped-up! | %22
!ped! (B,A,-) A,2!ped-up!!ped! z2 z4!ped-up! | %23
"^espress."!ped! x2 A2!ped-up!!ped! x2!ped-up!!ped! A2 F2!ped-up!!ped! | %24
{/A,,} B,A,/A,/!>(! A,/D!>)!A,/ (F2 E2 DA,/D,/)!ped-up! | %25
!mf!!ped![I:staff -1] F[I:staff +1]E/E/ E z!ped-up!!ped! CE/E/ E/CE,/- E,E,,!ped-up!!ped! | %26
 x4 (E2 B,2 A,2)!ped-up! | %27
!ped! z _G,/G,/ _G/G,G/!ped-up!"^espress."!ped! (_CE) (E/D/G) (GE/D/)!ped-up! | %28
!ped! _C2[I:staff -1] D/4E/4D/4_C/4D (DC-) C4!ped-up! | %29
!ped![I:staff +1] [E,,,E,,][E,,E,]/[E,,E,]/ ([E,A,_F]>B,) [E,_C]E,/E,/ E/E,E,/ !arpeggio![E,,D,_G,]2!ped-up! | %30
!ped! [E,,,E,,]E,,/E,,/!mf! E,/E,,A,/ A,(_G,/E/) E/D[I:staff -1]_G/ G(E/e/)!ped-up!!ped! || %31
[K:B][I:staff +1][K:bass] D,<E,- E,/D,/E,/F,/ G,/F,/G, G,<F, D,/E,/F,/E,/!ped-up! | %32
!ped! E,<D,- D,4 (G,/F,/)E,/F,/ D,2!ped-up!!ped! | E4 D2- (D/A,D/ ED/C/)!ped-up! | %34
!p!"^espr."!ped! [G,,,G,,](D/G,/ F,/)(FG,/ E,)(E/G,/ D,/)(DG,/ C,)(C/G,/!ped-up! | %35
!ped! B,,)(C/C,/ A,,/)(CC,/ G,,)(C/E,/ E,,/)(G,C,/ C,,)A,/E,/!ped-up! | %36
!ped! x2 x/ !tenuto!A,3/2 x !tenuto!B, x/ !tenuto!C3/2 x !tenuto!D!ped-up! | %37
!ped! G,,,(A,/E,/ G,,/)(CE,/ G,,)(B,/D,/ E,,/)(G,C,/"^poco      rit." C,,)(x/C,/!ped-up! | %38
!ped! D,,)(F,/B,,/ G,,/)(B,D,/ C,)(F,/E,/ F,,/)(G,E,/- E,G,/A,/)!ped-up! | %39
!ped! x !tenuto!A, x/ !tenuto!C3/2 x !tenuto!C x/ !tenuto!A,3/2 x (!tenuto!G,!ped-up! | %40
!ped! D,,)(C/G,/ D,/)(EG,/- G,)[K:treble](G/(C/) E/)(cE/-) (EG,)!ped-up! | %41
[K:bass]!>(!!ped! [D,,,D,,]!>)!(A,/D,/ A,,/)(CD,/ C,)(C/D,/ B,,/)(B,D,/ G,,)(B,/D,/!ped-up! | %42
!ped! C,,)(G,/C,/ G,,/)(CE,/ D,,)(D/A,/ D,/)(A,A,,/ D,)(A,,/D,,/!ped-up! | %43
!ped! C,,)(G,/C,/ G,,/)(C^E,/ B,,,)(F,/B,,/ F,,/)(B,D,/ B,,)(D/F,/!ped-up! | %44
!ped! =A,,,)(E,/=A,,/ E,,/)(=A,C,/ D,,,)(D,/^A,,/ D,,/)(^A,D,/ A,,)(D/A,/!ped-up! | %45
!ped! D,,,)(D,/A,,/"^riten." D,,) (A,2 D, A,,2) !fermata!D2!ped-up! |] %46
[K:E][M:2/2] [C,,,C,,]2 !>![E,,,E,,]6 | (3[C,,,C,,]2 [E,,,E,,]2 [F,,,F,,]2 [G,,,G,,]4 | %48
 [G,,,G,,]2 [F,,,F,,]2 [G,,,G,,]2 [E,,,E,,]2 | [D,,,D,,]2 [C,,,C,,]6 | %50
 [G,,,G,,]2 [B,,,B,,]2 [G,,,G,,]2 [F,,,F,,][E,,,E,,] | [F,,,F,,]2 [C,,,C,,]6 | %52
 [D,,,D,,]2 [E,,,E,,]2 [F,,,F,,]2 [E,,,E,,]2 | [G,,,G,,]4 [F,,,F,,]2 [D,,,D,,]2 | %54
 [E,,,E,,]2 [D,,,D,,]2 [C,,,C,,]4- | [C,,,C,,]4 [E,,,E,,]4 | [C,,C,]2 !>![E,,E,]6 | %57
 (3[C,,C,]2 [E,,E,]2 [F,,F,]2 [G,,G,]4 | [G,,G,]2 [F,,F,]2 [G,,G,]2 [E,,E,]2 | [D,,D,]2 [C,,C,]6 | %60
 [D,D]2 [F,F]2 [D,D]2 [C,C][B,,B,] | [C,C]2 [G,,G,]6 | !>![F,F]2 !>![G,G]2 !>![A,A]2 !>![G,G]2 | %63
 !>![B,B]4 !>![A,A]2 !>![F,F]2 | !>![G,G][F,F] [E,E]2 !>![C,C][B,,B,] [A,,A,]2 | %65
 !>![G,,G,][F,,F,] [E,,E,]2 !>![C,,C,][B,,,B,,] [A,,,A,,]2 |!ped! z4 (([F,F] [A,A]3))!ped-up! | %67
!ped! z4 (3[C,C][E,E][F,F] [G,G]2!ped-up! |!ped! z4 [B,,B,][A,,A,][B,,B,][G,,G,]!ped-up! | %69
!ped! z4 [G,,G,] [F,,F,]3!ped-up! |!ped! z4 =C,E,C,B,,/A,,/!ped-up! | %71
!ped! B,, E,,3- E,,4-!ped-up! |!ped! A,,B,,=C,B,, =D,2 C,B,,!ped-up! | %73
!ped! (^G,, =F,,3)!ped-up!!ped! (A,, E,,3)!ped-up! | %74
!ped! (^F,, _E,,3)!ped-up!!ped! (=G,, =D,,3)!ped-up! | %75
!ped! (_G,, _D,,3)!ped-up!!ped! (=F,, D,,3)!ped-up! |!ped! (=E,, C,,3) (E,, C,,3)!ped-up! || %77
[K:C]!ped! x8!ped-up! |!ped! C,,8!ped-up! |!ped! C,,8- | C,,8- | C,,2!ped-up!!ped! C,6- | C,8- | %83
 C,2!ped-up![K:treble]!ped! C6!ped-up! |!ped! C8!ped-up! |!ped! x8!ped-up! |!ped! x8!ped-up! | %87
!ff! !^!E4 !^!G4 | (3!^!E2 !^!G2 !^!A2 !^!_B4 | !>!_B2 !>!A2 !>!B2 !>!G2 | %90
 !>!F2!ped! !^!E6!ped-up! |[K:bass] _B,2"^poco" D2 B,2 A,G, | A,2!ped! E,6!ped-up! | %93
!ped! (D,2 E,2 F,2 E,2!ped-up! |!ped! G,4 F,2 D,2!ped-up! |!mp! E,) x x2 x4 | x8 | x8 | %98
[K:treble] .B, z!ped! !^!E6!ped-up! | (3:2:6B, x E x F x G x x2 | G x F x G x E x | %101
 E x B, x E x[K:bass] !^![E,,,E,,]2 |[K:treble] .=D z!ped! !^!A6!ped-up! | %103
 (3:2:6A, x D x E x F x x2 | x8 | x8 | x8 | x8 |"^cresc." x8 | x8 | x8 | x8 | x8 | x8 | x8 | x8 | %116
 x8 | x8 |!ped! ^F2 B,2 F2 B,2 | ^F2 B,2 F2 B,2!ped-up! | %120
!ped! (6:4:6^F[I:staff -1]^FE[Be]AE[I:staff +1] z4!ped-up! |!ped! z8!ped-up!!ped!!8vb(!!8vb)! || %122
[K:E][K:bass]!mf! E,4 (3E,2 G,2 B,2!ped-up! |!ped! B,4 (B, G,3)!ped-up!!ped! | %124
 !arpeggio!C4 (CD E2)!ped-up!!ped! | C4 (C B,2) B,!ped-up!!ped! | (B, C3) (CB, G,2)!ped-up!!ped! | %127
 (!arpeggio!B,2 G,2) (B,C D2)!ped-up!!ped! | !arpeggio!C4 (CB, C2)!ped-up!!ped! | %129
 (!arpeggio!G,2 E,2) (E,F, G,2)!ped!!ped-up! | (!arpeggio!B,2 G,F, G,2 F,2)!ped-up!!ped! | %131
 !arpeggio!F,4 (E,F, G,2)!ped-up!!ped! | !arpeggio!F,4 (F, E,3-) | !^![B,,,B,,E,]8 | %134
!ped! !^![F,,,F,,]8!ped-up! |!ped! !^![E,,,E,,]8!ped-up! | %136
!ped! (6:4:6(C,D,C,[D,G,]C,G,, (6:4:6B,,C,B,,[C,E,]B,,E,,)!ped-up! | %137
!ped! (6:4:6(C,D,C,[D,G,]C,G,, (6:4:6B,,C,B,,[C,E,]B,,E,,)!ped-up! | %138
!ped! (6:4:6(C,D,C,[D,G,]C,"^cresc."G,, (6:4:6B,,C,"^poco a poco"B,,[C,E,]B,,E,,)!ped-up! | %139
!ped! (6:4:6(C,D,C,[D,G,]C,G,, (6:4:6B,,C,B,,[C,E,]B,,E,,)!ped-up! | %140
!ped! (6:4:6(C,D,C,[D,G,]C,G,, (6:4:6B,,C,B,,[C,E,]B,,E,,)!ped-up! | %141
!ped! (6:4:6(C,D,C,[D,G,]C,G,, (6:4:6B,,C,B,,[C,E,]B,,E,,)!ped-up! | %142
!ped! (6:4:6(C,D,C,[D,G,]C,G,, (6:4:6B,,C,B,,[C,E,]B,,E,,)!ped-up! | %143
!ped! (6:4:6(C,D,C,[D,G,]C,G,, (6:4:6B,,C,B,,[C,E,]B,,E,,)!ped-up! | %144
!ped! (6:4:6(C,D,C,[D,G,]C,G,, (6:4:6B,,C,B,,[C,E,]B,,E,,)!ped-up! | %145
!ped! (6:4:6(C,D,C,[D,G,]C,G,, (6:4:6B,,C,B,,[C,E,]B,,E,,)!ped-up! | %146
!ped! (6:4:6(C,D,C,[D,G,]C,G,, (6:4:6B,,C,B,,[C,E,]B,,E,,)!ped-up! | %147
!ped! (6:4:6(C,D,C,[D,G,]C,G,, (6:4:6B,,C,B,,[C,E,]B,,E,,)!ped-up! | %148
!ped! !^![E,,,E,,]4 (3[E,,,E,,]2 [G,,,G,,]2 [B,,,B,,]2!ped-up! | %149
!ped! [B,,,B,,]4 [B,,B,] [G,,G,]3!ped-up! |!ped! !^![C,C]4[K:treble] [Cc] [B,B]2 [B,B]!ped-up! | %151
!ped! [B,B]2 [G,G]2 [B,B][Cc] [Dd]2!ped-up! ||[K:bass] [C,,,C,,]2 !>![E,,,E,,]6 | %153
 (3[C,,,C,,]2 [E,,,E,,]2 [F,,,F,,]2 [G,,,G,,]4 | [G,,,G,,]2 [F,,,F,,]2 [G,,,G,,]2 [E,,,E,,]2 | %155
 [D,,,D,,]2 [C,,,C,,]6 | [G,,,G,,]2 [B,,,B,,]2 [G,,,G,,]2 [F,,,F,,][E,,,E,,] | %157
 [F,,,F,,]2 [C,,,C,,]6 | [D,,,D,,]2 [E,,,E,,]2 [F,,,F,,]2 [E,,,E,,]2 | %159
 [G,,,G,,]4 [F,,,F,,]2 [D,,,D,,]2 | [E,,,E,,]2 [D,,,D,,]2 [C,,,C,,]4- | [C,,,C,,]4 [E,,,E,,]4 | %162
 [C,,C,]2 !>![E,,E,]6 | (3[C,,C,]2 [E,,E,]2 [F,,F,]2 [G,,G,]4 | %164
 [G,,G,]2 [F,,F,]2 [G,,G,]2 [E,,E,]2 | [D,,D,]2 [C,,C,]6 | [D,D]2 [F,F]2 [D,D]2 [C,C][B,,B,] | %167
 [C,C]2 [G,,G,]6 | !>![F,F]2 !>![G,G]2 !>![A,A]2 !>![G,G]2 | !>![B,B]4 !>![A,A]2 !>![F,F]2 | %170
 !>![G,G][F,F] [E,E]2 !>![C,C][B,,B,] [A,,A,]2 | %171
 !>![G,,G,][F,,F,] [E,,E,]2 !>![C,,C,][B,,,B,,] [A,,,A,,]2 | %172
!ped! !^![G,,,G,,]4[K:treble]!<(! (3[E,E]2 [G,G]2 [B,B]2!ped-up!!<)! | %173
!ped! [B,B]4!>(! [B,B]!>)! [G,G]3!ped-up! | %174
[K:bass]!ff!!ped! !^![G,,,G,,]4!<(! (3[C,C]2 [E,E]2 [G,G]2!ped-up!!<)! | %175
!ped! [G,G]4 !>![G,G] [E,E]3!ped-up! | %176
!ff!!ped! !^![G,,,G,,]4!<(! (3[A,,A,]2 [C,C]2 [E,E]2!ped-up!!<)! | %177
!ped! [E,E]4 !>![E,E] [C,C]3!ped-up! | %178
!ff!!ped! !^![G,,,G,,]4!<(! (3[F,,F,]2 [A,,A,]2 [C,C]2!ped-up!!<)! | %179
!ped! [C,C]4 !>![C,C] [A,,A,]3!ped-up! |!ped! z4!>(! (F,,!>)! A,,3)!ped-up! | %181
!ped! z4 (3E,,2 G,,2 A,,2!ped-up! |!ped! z4!>(! (F,,!>)! A,,3)!ped-up! | %183
!ped! z4 (3E,,2 G,,2 A,,2!ped-up! |!ped! z4!>(! (A,,!>)! G,,3)!ped-up! | %185
!ped! z4!>(! (A,,!>)! G,,3)!ped-up! |!ped! z4!>(! (A,,!>)! G,,3)!ped-up! | %187
!ped! z4!>(! (A,,!>)! G,,3)!ped-up! |!ped! z4!>(! ([A,,,A,,]!>)! [G,,,G,,]3)!ped-up! | %189
!ped! z4!>(! ([G,,,G,,]!>)! [F,,,F,,]3)!ped-up! | %190
!ped! z4!>(!!>(! ([F,,,F,,] [E,,,E,,]3)!ped-up!!>)!!>)! | %191
!ped! z4!>(! ([E,,,E,,] [D,,,D,,]3)!ped-up!!>)! || %192
[K:C#][M:8/4]"^dolcissimo"!ped! (C,,,/C,,/G,,/C,/[I:staff -1]E,/G,/C/E/[I:staff +1][K:treble] ((c2) e6)!ped-up![I:staff -1] (3c2 e2!ped! f2!ped-up![I:staff +1][K:bass]!ped! (G,,/D,/!ped-up!G,/=B,/[I:staff -1]D/G/=B/d/[I:staff +1][K:treble] !>!g4)) | %193
[K:bass] z4 z4!ped!!ped-up!!ped! (D,,/A,,/F,/[I:staff -1]A,/D/F/A/[I:staff +1][K:treble] (!tenuto!d2)[K:bass]!ped-up!!ped! (A,,,/E,,/C,/[I:staff -1]E,/A,/!ped-up!C/E/[I:staff +1][K:treble] c6)) | %194
[K:bass]!ped! (G,,,/D,,/G,,/=B,,/[I:staff -1]D,/G,/=B,/D/[I:staff +1][K:treble]G/=B/d/) z4 z4[K:bass]!ped-up!!ped! (D,,/A,,/F,/[I:staff -1]A,/D/F/A/[I:staff +1][K:treble] (f2)[K:bass]!ped-up!!ped! (F,,/C,/F,/[I:staff -1]A,/C/F/A/[I:staff +1][K:treble] c6))!ped-up! | %195
[K:bass]!ped! (=B,,,/F,,/D,/[I:staff -1]=B,/D/F/=B/[I:staff +1][K:treble] (!tenuto!d2)[I:staff -1] !tenuto!e2 !tenuto!f2 !tenuto!e2[I:staff +1][K:bass]!ped-up!!ped! (G,,/D,/G,/=B,/[I:staff -1]D/G/B/d/[I:staff +1][K:treble] !tenuto!g4)[I:staff -1] (f2!ped! d2))!ped-up! | x5!ped-up! %196
[I:staff +1][K:bass]!ped! (C,,/G,,/!ped-up!C,/E,/[I:staff -1]G,/C/E/G/[I:staff +1][K:treble] !tenuto!e2 !tenuto!d2 !tenuto!c4)[K:bass] ([=B,,,D,,=B,,]4 [A,,,C,,A,,]2 [F,,,C,,F,,]2) | %197
"^rit." !tenuto![G,,,C,,G,,]4 !tenuto![F,,,C,,F,,]4 !tenuto![E,,,C,,E,,]8 | %198
 (E,,,!ped!E,,[G,,C,]G,[I:staff -1][G,C]G[CG]c[Gc] g2)[I:staff +1] (C, E,3)!ped-up! (3!tenuto!C,!tenuto!E,!tenuto!F, G,2!p! !stemless![C,G,-] !stemless![E,G,]3 (3!stemless![C,G,]!stemless!E,!stemless!F, !stemless!G,2 | %199
 (E,,,!ped!E,,[G,,C,]=B,[I:staff -1][G,C]G[CG]c[Gc] g2)[I:staff +1] (!tenuto!G,!tenuto!F,!tenuto!G,!tenuto!E,) (D, C,3)!p! !stemless!G,!ped-up!!stemless!F,!stemless!G,!stemless!E, !stemless!D, !stemless!C,3 | %200
 (F,,,!ped!F,,[F,,C,]G,[I:staff -1][A,C]G[CF]cG [cg]2)[I:staff +1] (A,CA,G,/F,/) (G, D,3) (F,,,!ped-up!!ped!F,,[F,,C,]D,[I:staff -1][=A,C]=A[DF]d[Ac] [d=a]2)[I:staff +1] (!tenuto!D,!tenuto!E,!tenuto!F,!tenuto!E,) !tenuto!G,2 (!tenuto!F,!tenuto!D,) | %201
[M:12/4] !tenuto!E,2!ped! !tenuto!D,2 !tenuto!C,4!p! !stemless![D,A,]!stemless![E,A,]"_rall."!stemless![F,A,]!stemless![E,A,] !stemless![G,A,]2 !stemless![F,A,]!stemless![D,A,] !stemless![E,A,]4 !stemless![D,A,]4 || x14!ped-up! %202
[K:E][M:2/2]!pp!!ped! (3C,,,2- C,,2- G,,2- x4!ped-up! | G,,4-!pp! (6:4:6(G,,A,,G,,[A,,C,]G,,C,,) | %204
 (6:4:6(A,,B,,A,,[C,E,]B,,E,, (6:4:6G,,A,,G,,[A,,C,]G,,C,,) | %205
 (6:4:6(A,,B,,A,,[C,E,]B,,E,, (6:4:6G,,A,,G,,[A,,C,]G,,C,,) | %206
!ped! (6:4:6(A,,B,,A,,[C,E,]B,,E,, (6:4:6G,,A,,G,,[A,,C,]G,,C,,)!ped-up! | %207
!ped! (6:4:6(A,,"^cresc."B,,A,,"^poco a poco"[C,E,]B,,E,, (6:4:6G,,A,,G,,[A,,C,]G,,C,,)!ped-up! | %208
!ped! (6:4:6(A,,B,,A,,[C,E,]B,,E,, (6:4:6G,,A,,G,,[A,,C,]G,,C,,)!ped-up! | %209
!ped! (6:4:6(A,,B,,A,,[C,E,]B,,E,, (6:4:6G,,A,,G,,[A,,C,]G,,C,,)!ped-up! | %210
!ped! (6:4:6(A,,B,,A,,[C,E,]B,,E,, (6:4:6G,,A,,G,,[A,,C,]G,,C,,)!ped-up! | %211
!ped! (6:4:6(A,,B,,A,,[C,E,]B,,E,, (6:4:6G,,A,,G,,[A,,C,]G,,C,,)!ped-up! | %212
!ped! (6:4:6(A,,B,,A,,[C,E,]B,,E,, (6:4:6G,,A,,G,,[A,,C,]G,,C,,)!ped-up! | %213
!ped! (6:4:6(A,,B,,A,,[C,E,]B,,E,, (6:4:6G,,A,,G,,[A,,C,]G,,C,,)!ped-up! | %214
!ped! (6:4:6(A,,B,,A,,[C,E,]B,,E,, (6:4:6G,,A,,G,,[A,,C,]G,,C,,)!ped-up! | %215
!ped! (6:4:6(A,,B,,A,,[C,E,]B,,E,, (6:4:6G,,A,,G,,[A,,C,]G,,C,,)!ped-up! | %216
!ped! [C,,,C,,]4 (3[C,,,C,,]2 [E,,,E,,]2 [G,,,G,,]2!ped-up! | %217
!ped! [G,,,G,,]4 [G,,G,] [E,,E,]3!ped-up! |!ped! [A,,A,]4[K:treble] ([A,A] [G,G]2) [G,G]!ped-up! | %219
!ped! [G,G]2 [E,E]2 [G,G][A,A] [B,B]2!ped-up! |!ped! [Cc]4 [Aa][Gg] [Aa]2!ped-up! | %221
!ped! [Ee]2 [Cc]2 [Cc][Dd] [Ee]2!ped-up! |!ped! [Aa]2 [Ee]2 [Ee][Gg] [Aa]2!ped-up! | %223
!ped! [egc'e'] z z2[K:bass]!ped-up!!ped! [C,,,C,,]4!ped-up! | %224
[K:treble] !arpeggio!!fermata![D,CEc]8 |][K:A][M:5/4] z10!ped!!ped-up! | %226
!mp!"_espress.""^m.d." (c!ped!f a2 agafgb!ped-up! | %227
!>(! c'/!ped!d'/c'!>)!!>(! d'c'!>)! g2)!<(! (a/b/c'!<)!!>(! d'b!>)!!ped-up! | %228
 c'<!ped!b- b2) (a/b/c'- (3c'ba b2!ped-up! | b!ped! a3-) a6!ped-up! | %230
 z4!ped! z/ (A/G F/A/c) z2!ped-up! | z4!ped! z/ (A/G F/A/c) z2!ped-up! | %232
 z10!ped!!ped-up!!ped!!ped-up!!ped!!ped-up!!ped!!ped-up!!ped!!ped-up! | z10!ped!!ped-up! | %234
[K:bass]!mf!!<(! (A,!ped!C!<)! E2) (EDECDB,!ped-up! | C/!ped!D/C DC A,6)!ped-up! | %236
 x/4!ped!"^m.s."[I:staff +1]{/F,,,}[I:staff -1] (!tenuto![C,C]/[^D,^D]/[C,C])"_cresc." [D,D][C,C]"_molto" ([C,C]/[D,D]/[C,C]) ([D,D][C,C])!tenuto![C,C]!tenuto![C,C]!ped-up! | %237
 x/4!ped!{/F,,} (!tenuto![B,,B,]/[C,C]/[B,,B,]) [B,,B,][A,,A,] ([A,,A,]/[B,,B,]/[A,,A,]) ([B,,B,][A,,A,])!tenuto![G,,G,]!tenuto![G,,G,]!ped-up! | %238
 x/4!ped!!f! CCC>C CCCCC>C!ped-up! | x/4!ped!!<(! CCC>C CCCC!<)!!>(!C>C!>)!!ped-up! | %240
[K:treble] x/!ped! z4 (F/G/A- (3AGF G2!ped-up! | G!ped! F3-)!mf! F6- | x/!ped-up! %242
 F4!ped!!p! =G/A/B- (3BAG A2!ped-up! |"^cresc.""^cresc." A!ped! =G3- G6!ped-up! | %244
[M:7/4] z2!ped! (=G/A/B-!<(! (3BAG A<G) (B/!ped-up!!ped!c/d- (3d!ped-up!cB d<c) | %245
[M:5/4] (c/!ped!d/e- (3edc) (d/!ped-up!!ped!e/=f- (3fed f2)!<)! | x4!ped-up! %246
!ff! (^f!ped! ^e3-) e6!ped-up! | (=e!ped!"_dim." d3-)"_e poco a poco" d6!ped-up! | %248
 (d!ped! c3-) c6!ped-up! | (c!ped! B3-) B6!ped-up! |"^m.d." (A!ped! G3-) G2 z2 z2!ped-up! || %251
[K:F#] x/!ped! ([Cc][Cc][Cc]3/2 [Cc]/ [Cc][Cc][Cc][Cc][Cc]>[Cc])!ped-up! | %252
 (C!ped!C C>C [Cc][Cc][Cc]C C>C) | x/!ped-up! (C!ped![Cc] [Cc]>[Cc] [Cc]CCC [Cc]>[Cc])!ped-up! | %254
 [Cc]!ped![Cc] [Cc]>[Cc] [Cc][Cc][Cc][Cc] [Cc]>[Cc]!ped-up! | %255
!p! c!ped!c c>c cccc!p! (B/c/d)!ped-up! | (A!ped! G3-) G6!ped-up! | %257
 (c!ped! B3-) B4 (A/B/c)!ped-up! |!p! (G!ped!"_dim." F3-) F6!ped-up! | %259
!mp! (3z!ped! (DF A2) (AGAFGE)!ped-up! |!pp! F8 z2 | %261
[I:staff -1] (f'/!ped!f/!mp![I:staff +1] (F/)G/ F GF C2!ped-up! D/E/ F GE | (F<E-) E4)!pp! C4- | %263
 C4- C6 |[I:staff -1] (f'/!ped!f/!mp![I:staff +1] F<)^E- E2 D/E/F- (3F!ped-up!ED E2 | %265
 (E D3)!pp! C6- | C4-!>(! C6!>)! || %267
[K:A]!p! [A,A]<[G,G]- [G,G]2 ([F,CF]/[G,CG]/[A,CA]- (3[A,CA][G,CG][F,CF] [G,CG]2) | %268
 ([G,CG] [F,CF]3-) [F,CF]6 | %269
 ([A,CA]/[B,CB]/[A,CA] !tenuto![B,CB]!tenuto![A,CA] [E,CE]2 [F,CF]/[G,CG]/[A,CA] !tenuto![B,CB]!tenuto![A,CA] | %270
 [A,CA]<[G,CG]- [G,CG]8) | ([F,CF]/[G,CG]/[A,CA]- (3[A,CA][G,CG][F,CF] [G,CG]2) ([G,CG] [F,CF]3-) | %272
 [F,CF]4- [F,CF]6- | [F,CF]4- !fermata![F,CF]6 |] %274
V:3
 z10 | z10 | z10 | z10 | z10 | z10 | z10 | z10 | z10 | z10 | z10 | z10 | z10 | z10 | z10 | z10 | %16
 z10 | z10 ||[K:Ab] z10 | z10 | z10 | z10 | z10 | z10 | z10 | z10 | z10 | z10 | z10 | z10 | z10 || %31
[K:B] z10 | z10 | z10 | z10 | z10 | z10 | z10 | z10 | z10 | z10 | z10 | z10 | z10 | z10 | z10 |] %46
[K:E][M:2/2] z8 | z8 | z8 | z8 | z8 | z8 | z8 | z8 | z8 | z8 | z8 | z8 | z8 | z8 | z8 | z8 | z8 | %63
 z8 | z8 | z8 | z8 | z8 | z8 | z8 | z8 | z8 | z8 | z8 | z8 | z8 | z8 ||[K:C] z8 | z8 | z8 | z8 | %81
 z8 | z8 | z8 | z8 | z8 | z8 | z8 | z8 | z8 | z8 | z8 | z8 | z8 | z8 | z8 | z8 | z8 | z8 | z8 | %100
 z8 | z8 | z8 | z8 | z8 | z8 | z8 | z8 | z8 | z8 | z8 | z8 | z8 | z8 | z8 | z8 | z8 | z8 | z8 | %119
 z8 | z8 | z6 z2 ||[K:E] z8 | z8 | z8 | z8 | z8 | z8 | z8 | z8 | z8 | z8 | z8 | z8 | z8 | z8 | z8 | %137
 z8 | z8 | z8 | z8 | z8 | z8 | z8 | z8 | z8 | z8 | z8 | z8 | z8 | z8 | z8 || z8 | z8 | z8 | z8 | %156
 z8 | z8 | z8 | z8 | z8 | z8 | z8 | z8 | z8 | z8 | z8 | z8 | z8 | z8 | z8 | z8 | z8 | z8 | z8 | %175
 z8 | z8 | z8 | z8 | z8 | z8 | z8 | z8 | z8 | z8 | z8 | z8 | z8 | z8 | z8 | z8 | z8 || %192
[K:C#][M:8/4] z16 z8 | z16 z4 z2 z | z16 z8 z4 z/ | z16 z4 z2 z z/ | z16 z4 | z16 | %198
[K:bass] x4 x4 x3 z4 z4 ([E,,,E,,] [C,,,C,,]3) (3[G,,,G,,][E,,,E,,][D,,,D,,] [C,,,C,,]2 | %199
 x4 x4 x3 z4 z4 ([E,,,E,,][D,,,D,,][E,,,E,,][C,,,C,,]) ([D,,,D,,] [E,,,E,,]3) | x8 x3 x8 x8 x3 x8 | %201
[M:12/4] z4 z4 [F,,,F,,][E,,,E,,][D,,,D,,][E,,,E,,] [C,,,C,,]2 [D,,,D,,][F,,,F,,] !tenuto![E,,,E,,]4 !tenuto![F,,,F,,]4 || %202
[K:E][M:2/2] z8 | z8 | z8 | z8 | z8 | z8 | z8 | z8 | z8 | z8 | z8 | z8 | z8 | z8 | z8 | z8 | z8 | %219
 z8 | z8 | z8 | z8 | z8 | z8 |][K:A][M:5/4][K:treble] z10 | (FA c2 cBcABG | %227
 A/B/A BA E2) (F/G/A BG) | A<G- G2 F/G/A- (3AGF G2 | %229
 z4[K:bass]!pp! (C/F,/D,/F,/D,/C,/F,,/C,,/ F,,,2) | z3/2 (G,/ F,/A,/C- C4-) C>C | %231
 F,,, z/ (G,/ F,/A,/C- C4-) C>C | %232
"^allarg.-        -         -          -          -        -         -" (G,,G, F,>B,) (F,,E,D,>F,) (B,,,D,) | %233
"^a tempo" [F,,,C,,F,,]2 z8 | %234
 ([F,,,F,,][A,,,A,,] [C,,C,]2) [C,,C,][B,,,B,,][C,,C,][A,,,A,,][B,,,B,,][G,,,G,,] | %235
 [A,,,A,,]/[B,,,B,,]/[A,,,A,,] [B,,,B,,][A,,,A,,] (C,/D,/C,) D,C, F,,2 | x/4x/x/ x x8 | %237
 x/4x/x/ x8 x | x/4{/[B,,,B,,]} [F,A,]4- [F,A,]6 | x/4 (E6 ^D2 =D2) | %240
 x/ !arpeggio![C,,,C,,C,] z z2 z4 z2 | x4 x4 x2 | x10 | x10 |[M:7/4] x x x4 x2 x4 x2 | %245
[M:5/4] x4 x4 x2 | z4[K:treble]!mf! (A/D/B,/D/C/[K:bass]G,/C,/G,,/ !tenuto!C,,2) | %247
 z4[K:treble] (c/F/D/F/D/C/[K:bass]F,/B,,/ !tenuto!C,,2) | %248
 z4 (^E/=D/B,/C/B,/A,/^E,/C,/ !tenuto!C,,2) | z4 (F/B,/=G,/B,/A,/G,/C,/=G,,/ C,,2-) | %250
!mp! [C,,,C,,] z x8 ||[K:F#] x/4x/4!mf! (F,A, C2 CB,CA,B,G, | A,/B,/A, B,A, E,2) (F,/G,/A, B,G, | %253
 A,<G,- G,2) (F,/G,/A,- (3A,G,F, G,2) | (G, F,3)!pp! (C/F,/D,/F,/D,/C,/F,,/C,,/ !tenuto!F,,,2) | %255
 (B, A,3)[K:treble]!pp! x4[K:bass] (G,/A,/B,) | %256
 (C B,3)[K:treble] (A/D/B,/D/[K:bass]B,/A,/G,/C,/ F,,2) | (E D3)[K:treble] x4[K:bass] (C/D/E) | %258
 (B, A,3-) A,6 | (3z (D,F, A,2) (A,G,A,F,G,E,) | F,8 z2 | %261
 (F,,,/F,,/ (F,/)G,/ F, G,F, C,2 D,/E,/ F, G,E, | (F,<E,-) E,4) x4 | x10 | %264
 (F,,,/F,,/ F,<)^E,- E,2 D,/E,/F,- (3F,E,D, E,2 | (E, D,3) x4 x2 | z10 || %267
[K:A]!p! [F,,,C,,F,,]<[G,,,C,,G,,]- [G,,,C,,G,,]2 ([A,,,C,,A,,]/[G,,,C,,G,,]/[F,,,C,,F,,]- (3[F,,,C,,F,,][G,,,C,,G,,][A,,,C,,A,,] [G,,,C,,G,,]2) | %268
 (([G,,,C,,G,,] [A,,,C,,A,,]3-)) [A,,,C,,A,,]6 | %269
 ([F,,,C,,F,,]/[E,,,C,,E,,]/[F,,,C,,F,,] !tenuto![E,,,C,,E,,]!tenuto![F,,,C,,F,,] [A,,,C,,A,,]2 [A,,,C,,A,,]/[G,,,C,,G,,]/[F,,,C,,F,,] !tenuto![E,,,C,,E,,]!tenuto![F,,,C,,F,,] | %270
 [F,,,C,,F,,]<[G,,,C,,G,,]-"^sempre""^dim." [G,,,C,,G,,]8) | %271
!pp! [A,,,C,,A,,]/[G,,,C,,G,,]/[F,,,C,,F,,]- (3[F,,,C,,F,,][G,,,C,,G,,][A,,,C,,A,,] [G,,,C,,G,,]2 ([G,,,C,,G,,] [A,,,C,,A,,]3-) | %272
 [A,,,C,,A,,]4- [A,,,C,,A,,]6- | [A,,,C,,A,,]4- !fermata![A,,,C,,A,,]6 |] %274
V:4
 x10 | !tenuto!D,,(D/A,/ D,/)(EA,/ F,)(F/A,/ E,/)(GA,/ D,)A/A,/ | x5[K:treble] x5 |[K:bass] x10 | %4
 x10 | G,,,(G,/D,/ G,,/)(xD,/ G,,)(B,/D,/ G,,/)(xD,/ G,,)D/D,/ | x10 | x10 | x10 | %9
 x6[K:treble] x7/2 |[K:bass] x401/40 | x5[K:treble] x5 | %12
[K:bass] !tenuto![G,,,G,,](x/^B,/ D,/)(xB,/ =A,)(G/B,/ G,/)(xB,/ F,)(D/G,/ | %13
 !tenuto!D,)(x/G,/ ^B,,/)(x=A,/ =A,,)(x/F,/ G,,/)(xE,/ C,,)E,/G,,/ | x10 | x10 | x10 | x10 || %18
[K:Ab] E, x x2 z (B,/E,/) z2 (B,/E,/) z | !arpeggio![E,,C,]4 E,6 | [E,A,C]4 (B,2 A,2 E,2) | %21
 !arpeggio![E,,C,]4 E,6 | !arpeggio![A,,E,]4 (B,,2 A,,2 E,,2) | %23
{/A,,,} B,A,/A,/ A,/DA,/ D(B/A/ A,/)DA,/ (D,(B,/)A,/) | x10 | !arpeggio![E,,C,A,] z z2 z6 | %26
{/A,,,} F,E,/E,/ E,/EE,/- E,6 | !arpeggio![E,,_C,_G,] z z2 E,6 | %28
 E,2 ([_G,,E,]2 !arpeggio![E,,_C,_G,]2 D,,2 _C,,2) | x10 | x10 || %31
[K:B][K:bass] !arpeggio![D,,,D,,] x z8 | z3/2 A,,,/ D,,, z z2 x4 | %33
{/E,-} (E,F, G,E,/C,/ D,F,/E,/ D,4) | x10 | x10 | %36
 G,,,(G,/D,/ G,,/)(xD,/ G,,)(x/D,/ G,,/)(xD,/ G,,)x/D,/ | x10 | x10 | %39
 D,,(x/D,/ A,,/)(xD,/ C,)(x/D,/ G,,/)(xD,/ G,,)x/D,/ | x5[K:treble] x5 |[K:bass] x10 | x10 | x10 | %44
 x10 | x8 (D!fermata!A,) |][K:E][M:2/2] x8 | x8 | x8 | x8 | x8 | x8 | x8 | x8 | x8 | x8 | x8 | x8 | %58
 x8 | x8 | x8 | x8 | x8 | x8 | x8 | x8 | !^![G,,,G,,]8 | !^![G,,,G,,]8 | !^![G,,,G,,]8 | %69
 !^![G,,,G,,]8 | !^![E,,,E,,]8 | x8 | E,,8 | x8 | x8 | x8 | x8 ||[K:C] x8 | x8 | x8 | x8 | x8 | %82
 x8 | x2[K:treble] x6 | x8 | x8 | x8 | x8 | x8 | x8 | x8 |[K:bass] x8 | x8 | x8 | x8 | x8 | x8 | %97
 x8 |[K:treble] x8 | x8 | x8 | x6[K:bass] x2 |[K:treble] x8 | x8 | x8 | x8 | x8 | x8 | x8 | x8 | %110
 x8 | x8 | x8 | x8 | x8 | x8 | x8 | x8 | x8 | x8 | x8 | x6 x3/2!8vb(! x/4x/4!8vb)! || %122
[K:E][K:bass] !arpeggio![E,,B,,] x x2 x4 | x6 x3/2 x/4x/4 | [A,,E,] x x4 x3/2 (3x/4x/4x/4 | %125
 !arpeggio![C,E,G,] x x2 x2 x3/2 x/4x/4 | !arpeggio![G,,D,] x x2 x2 x3/2 x/4x/4 | %127
 [G,,E,] x x2 x2 x3/2 x/4x/4 | [A,,E,] x x2 x2 x3/2 x/4x/4 | [E,,B,,] x x2 x2 x3/2 x/4x/4 | %130
 [G,,E,] x x2 x2 x3/2 x/4x/4 | [A,,C,] x x2 x2 x3/2 x/4x/4 | [E,,B,,] x x2 x4 | x8 | x8 | x8 | x8 | %137
 x8 | x8 | x8 | x8 | x8 | x8 | x8 | x8 | x8 | x8 | x8 | x8 | x8 | x4[K:treble] x4 | x8 || %152
[K:bass] x8 | x8 | x8 | x8 | x8 | x8 | x8 | x8 | x8 | x8 | x8 | x8 | x8 | x8 | x8 | x8 | x8 | x8 | %170
 x8 | x8 | x4[K:treble] x4 | x8 |[K:bass] x8 | x8 | x8 | x8 | x8 | x8 | !^!G,,,8 | !^!G,,,8 | %182
 !^!G,,,8 | !^!G,,,8 | !^!G,,,8- | G,,,8- | G,,,8- | G,,,8 | x8 | x8 | x8 | x8 || %192
[K:C#][M:8/4] x4[K:treble] x12[K:bass] x4[K:treble] x4 | %193
[K:bass] x23/2[K:treble] x2[K:bass] x7/2[K:treble] x6 | %194
[K:bass] x4[K:treble] x19/2[K:bass] x7/2[K:treble] x2[K:bass] x7/2[K:treble] x6 | %195
[K:bass] x7/2[K:treble] x8[K:bass] x4[K:treble] x8 |[K:bass] x4[K:treble] x8[K:bass] x8 | x16 | %198
 x27 | x27 | x3 G,6 x29 |[M:12/4] x24 ||[K:E][M:2/2] x8 | [C,,,C,,]8 | x8 | x8 | x8 | x8 | x8 | %209
 x8 | x8 | x8 | x8 | x8 | x8 | x8 | x8 | x8 | x4[K:treble] x4 | x8 | x8 | x8 | x8 | %223
 x/4x/4x/4x/4 x x2[K:bass] x4 |[K:treble] x/x/x/x/ x/x/x/x/!8va(! x4!8va)! |][K:A][M:5/4] x10 | %226
 x10 | x10 | x10 | C4 x4 x2 | x10 | x10 | x10 | x10 |[K:bass] x10 | x10 | x41/4 | x41/4 | x41/4 | %239
 x41/4 |[K:treble] x/ C4- C6- | C4 (C/D/E- (3EDC D2 | D C3-) C6- | C4 (D/E/F- (3FED E2 | %244
[M:7/4] D C3) x2 x8 |[M:5/4] x10 | x10 | x10 | x10 | x10 | x2"_m.s." C>C CCCC C>C ||[K:F#] x21/2 | %252
 x10 | x10 | x10 | x10 | x10 | x10 | x10 | x10 | x10 | x11 | x10 | x10 | x11 | x10 | x10 || %267
[K:A] C2- C2 x6 | x10 | x10 | x10 | x10 | x10 | x10 |] %274
V:5
 x10 | x10 | x10 | x10 | x10 | x10 | x10 |x>C B,>A, G,2 A,2 B,>C | x10 | x10 | %10
 (E<D-) D4 (7:4:7x/ x/x/ x/x/ x/x/ x2 | x10 | x10 | x10 | x10 | (DC E/G/F/G/)x2x2xx/E/ | %16
 D/ z/{/F-} F x8 | (B2 A2 G2 F2 D2) || %18
[K:Ab] x E/E/ E/eE/ z (B/E/) z2 (B/[I:staff +1]E/)[I:staff -1] z | x2 A/eA/ e(b/a/ A/)eA/ e(a/e/) | %20
 x2 A/eA/ e(b/a/) A/eA/ E(A/E/) | x2 e/ae/ a(f'/e'/ e/)ae/ A(e/A/) | %22
 x2 A/eA/ (eb/a/) A/eA/ E(A/E/) | !arpeggio![DFA] z z2 d2 z2 d2 | %24
 !arpeggio![Adf] z A2!pp! (Ad/A/ e/fd/) a2 | x/8x/8x/8 x3/2 x/8 A/EA/ A z x2 E2 | %26
 E4 BA/A/ A/eA/ E(A/E/) | !arpeggio![_C_G] z z2 [G_c] z z2 z2 | _G2 x2 x2 _C/GC/ G!mp!_c/G/ | %29
 x2 A_G x2 x4 | [E_G]2- [EG]8 ||[K:B]z/(xa/ e/) z/ z z2 z4 | %32
 z3/2 (a/ d/) (!tenuto!ad/ e(d/g/)) (g2 (d')g/d/) |{/e-} e4 d2 (d'/ad/!>(! ed/!>)!c/) | %34
 (([Dd][Gg])) !tenuto![Gg]2 !tenuto![Gg]2 (([Ff]/[Gg]/[Ff]/[Dd]/)) (([Ee]<[Ff])) | %35
 [Ff]4 (([Ff]<[Gg])) ([Gg][Ee])([Ee][Gg]) | G2 (F/D/E/F/ E<)D- D4 | %37
 (DC E/G/F/G/) !tenuto!G2 !tenuto!G2 G[I:staff +1]E | %38
 (D/[I:staff -1]E/F- FD) (E/C/D/E/ FE D/E/F/E/) | x10 | %40
 x2!8va(! x2!8va)! (9:8:4(g/4f/4g/4) x3/2 (13:8:4G/4F/4 x2 x3/4!8va(! (14:8:7(d'/4e'/4f'/4e'/4 d'/4) x3/2 x3/4 | %41
 x4!8va)! x6 | x10 | !>!G2 !>!^E2 (!>!D2 x2) x2 | !>!C2 !>!E2 !>!D2 x2 x2 | !>!D8 (d!fermata!A) |] %46
[K:E][M:2/2]!8va(! x16/3!8va)! x8/3 | x8 | x8 | x8 |!8va(! x16/3!8va)! x8/3 | x8 | x8 | x8 | x8 | %55
 x8 | x8 | x8 | x8 | x8 | x8 | x8 | x8 | x8 | x8 | x8 | (3gGg (3GgG (3gGg (3GfF | %67
 (3eEe (3EeE (3eEe (3EdD | (3cCc (3CcC (3cCc (3CBB, | (3AA,A (3A,AA, (3AA,A (3A,GG, | %70
 (3=G=G,G (3G,GG, (3GG,G (3G,FF, |[K:bass] (3EE,E (3E,EE, (3EE,E (3E,EE, | %72
 (3DD,D (3D,DD, (3DD,D (3D,DD, | (3=D"_dim."=D,D (3D,DD, (3CC,C (3C,CC, | %74
 (3=C=C,C (3C,CC, (3B,B,,B, (3B,,B,B,, | (3_B,_B,,B, (3B,,B,B,, (3B,B,,B, (3B,,B,B,, | %76
 (3A,A,,A, (3A,,A,A,, (3A,A,,A, (3A,,A,A,, ||[K:C] x8 | x8 | x8 | x8 | x2[K:treble] x6 | x8 | x8 | %84
 x8 | x8 | x8 | x8 | x8 | x8 | x8 | x8 | x8 | x8 | x2[K:bass] x6 | x8 | x8 | x8 | %98
 x8/3[K:treble] x16/3 | x8 | x8 | x8 | x8 | x8 | x8 | x8 | x8 | x8 | x8 | x8 | x8 | x8 | x8 | x8 | %114
 x8 | x8 | x8 | x8 | x8 | x8 | x8 | x8 ||[K:E] x8 | x8 | x8 | x8 | x8 | x8 | x8 | x8 | x8 | x8 | %132
 x8 | x8 | x4[K:bass] x4 | x8 | x8 |[K:treble] !arpeggio![E,G,B,] x x2 x4 | %138
 !arpeggio![G,E] x x2 x4 | [G,EG] x x2 x4 | !arpeggio![CEG] x x2 x4 | x8 | x8 | %143
 !arpeggio![Geg]2 x2 x4 | !arpeggio![GBe] x x2 x4 | !arpeggio![Ge] x x2 x4 | x8 | x8 |[K:bass] x8 | %149
[K:treble] x8 | x8 | x4!8va(! x4!8va)! ||!8va(! x16/3!8va)! x8/3 | x8 | x8 | x8 | %156
!8va(! x16/3!8va)! x8/3 | x8 | x8 | x8 | x8 | x8 | x8 | x8 | x8 | x8 | x8 | x8 | x8 | x8 | x8 | %171
 x8 | x8 | x8 | x8 | x8 | x8 | x8 | x8 | x8 | x8 |[K:bass] x8 | x8 | x8 |[K:treble] x8 | x8 | %186
[K:bass] x8 | x8 | x8 | x8 | x8 | x8 ||[K:C#][M:8/4][K:treble] x24 | x23 | x57/2 | x47/2 | %196
 x18[K:bass] x2 | x16 |[K:treble] x4 x4 x3 z4 z4 (C E3) (3(C-[C-E][C-F] [CG]2) | %199
 x4 x4 x3 z4 z4 (GFGE D C3) | x11!8va(! x8!8va)! x19 |[M:12/4] x24 ||[K:E][M:2/2][K:bass] x8 | x8 | %204
 x8 | x4[K:treble] x4 | !arpeggio![E,C] x x2 x4 | [A,CE] x x2 x4 | !arpeggio![A,CE] x x2 x4 | x8 | %210
 x8 | !arpeggio![Ace]2 x2 x4 | !arpeggio![EGc] x x2 x4 | !arpeggio![Ec] x x2 x4 | x8 | x8 | %216
[K:bass] x8 | x4[K:treble] x4 | x8 | x4!8va(! x4 | x8 | x8 | x8 | (3x/x/!8va)!x/ x x2 x4 | %224
!8va(! x8!8va)! |][K:A][M:5/4] x10 | x10 | x10 | x10 | x10 | x10 | x10 | c2 B2 A2 G2 E>D | x10 | %234
 x10 | x10 | x41/4 | x41/4 | x/4 ([cc']4- [cc']4 [^d^d']2) | x/4 ([Aa]8 [Bb]2) | x21/2 | x10 | %242
 x10 | x10 |[M:7/4] x14 |[M:5/4] x10 | x10 | x10 | x10 | x10 | [^E^e]2 x8 ||[K:F#] x21/2 | x10 | %253
 x10 | x10 | x10 | x10 | x10 | x10 | x10 | (F=A c2) (cBcABG) | x11 | x4 x2 (=A/B/A BA | %263
 =E2 F/G/=A BG A<G- G2) | x11 | x4 (=A<G- G2 F/G/A | =A/G/F G2) (GF- F4) ||[K:A] x C C>C x4 x2 | %268
 x2 C>C CCCCC>C | x10 | x2 C>C CCCCC>C | x8 C>C | CCC>C CCCCC>C | C2 C2 !fermata!C6 |] %274
V:6
 x10 | x10 | x10 | x10 | x10 | x10 | x10 | x10 | x10 | %9
 x2 (11:8:6(E/4x/4x/4x/4) x3/2 x/4 (9:8:4(g/4x/4) x3/2 x/4 (10:8:3(g'/4x/4) x2 (6:4:5(d/4e/4f/4e/4) x/ x | %10
 x401/40 | x10 | x10 | x10 | x10 | x10 | x3/4 x/4 x x8 | x10 ||[K:Ab] x10 | x10 | x10 | x10 | %22
 x8 x7/4 x/8 x/8 | x/8x/8x/8 x3/2 x/8 x6 x7/4 x/8 x/8 | x/8x/8x/8 x3/2 x/8 x8 | x10 | x10 | %27
 x/8x/8x/8 x3/2 x/8 x8 | x10 | x10 | x10 ||[K:B] x10 | x8 x7/4 x/4- | x10 | x10 | x10 | g x9 | %37
 x10 | d' x9 | x10 | x2!8va(! x4/3!8va)! x149/32!8va(! x2 | x4!8va)! x6 | x10 | x10 | x10 | x10 |] %46
[K:E][M:2/2]!8va(! x16/3!8va)! x8/3 | x8 | x8 | x8 |!8va(! x16/3!8va)! x8/3 | x8 | x8 | x8 | x8 | %55
 x8 | x8 | x8 | x8 | x8 | x8 | x8 | x8 | x8 | x8 | x8 | x8 | x8 | x8 | x8 | x8 |[K:bass] x8 | x8 | %73
 x8 | x8 | x8 | x8 ||[K:C] x8 | x8 | x8 | x8 | x2[K:treble] x6 | x8 | x8 | x8 | x8 | x8 | x8 | x8 | %89
 x8 | x8 | x8 | x8 | x8 | x2[K:bass] x6 | x8 | x8 | x8 | x8/3[K:treble] x16/3 | x8 | x8 | x8 | x8 | %103
 x8 | x8 | x8 | x8 | x8 | x8 | x8 | x8 | x8 | x8 | x8 | x8 | x8 | x8 | x8 | x8 | x8 | x8 | x8 || %122
[K:E] x8 | x8 | x8 | x8 | x8 | x8 | x8 | x8 | x8 | x8 | x8 | x8 | x4[K:bass] x4 | x8 | x8 | %137
[K:treble] x/4x/4x/4x/4 x x2 x4 | (3x/x/x/ x x2 x4 | x/4x/4x/4x/4 x x2 x4 | x/4x/4x/4x/4 x x2 x4 | %141
 x/8x/8x/8x/8 x3/2 x2 x4 | (3x/x/x/ x x2 x4 | x/4x/4x/4x/4 x x2 x4 | x/4x/4x/4x/4 x x2 x4 | %145
 (3x/x/x/ x x2 x4 | x/4x/4x/4x/4 x x2 x4 | x/4x/4x/4x/4 x x2 x4 |[K:bass] x8 |[K:treble] x8 | x8 | %151
 x4!8va(! x4!8va)! ||!8va(! x16/3!8va)! x8/3 | x8 | x8 | x8 |!8va(! x16/3!8va)! x8/3 | x8 | x8 | %159
 x8 | x8 | x8 | x8 | x8 | x8 | x8 | x8 | x8 | x8 | x8 | x8 | x8 | x8 | x8 | x8 | x8 | x8 | x8 | %178
 x8 | x8 | x8 |[K:bass] x8 | x8 | x8 |[K:treble] x8 | x8 |[K:bass] x8 | x8 | x8 | x8 | x8 | x8 || %192
[K:C#][M:8/4][K:treble] x24 | x23 | x57/2 | x47/2 | x18[K:bass] x2 | x16 |[K:treble] x27 | %199
 x4 x4 x3 x4 x4 [=B,C]4[I:staff +1] [G,=B,]4 | x11!8va(! x8!8va)! x19 |[M:12/4] x24 || %202
[K:E][M:2/2][I:staff -1][K:bass] x8 | x8 | x8 | x4[K:treble] x4 | (3x/x/x/ x x2 x4 | %207
 x/4x/4x/4x/4 x x2 x4 | x/4x/4x/4x/4 x x2 x4 | x/8x/8x/8x/8 x3/2 x2 x4 | (3x/x/x/ x x2 x4 | %211
 x/4x/4x/4x/4 x x2 x4 | x/4x/4x/4x/4 x x2 x4 | (3x/x/x/ x x2 x4 | x/4x/4x/4x/4 x x2 x4 | %215
 x/4x/4x/4x/4 x x2 [EG]4 |[K:bass] x8 | x4[K:treble] x4 | x8 | x4!8va(! x4 | x8 | x8 | x8 | %223
 x2/3!8va)! x22/3 |!8va(! x8!8va)! |][K:A][M:5/4] x10 | x10 | x10 | x10 | x10 | x10 | x10 | x10 | %233
 x10 | x10 | x10 | x41/4 | x41/4 | x41/4 | x41/4 | x21/2 | x10 | x10 | x10 |[M:7/4] x14 | %245
[M:5/4] x10 | x10 | x10 | x10 | x10 | x10 ||[K:F#] x21/2 | x10 | x10 | x10 | x10 | x10 | x10 | %258
 x10 | x10 | x10 | x11 | x10 | x10 | x11 | x10 | x10 ||[K:A] x10 | x10 | x10 | x10 | x10 | x10 | %273
 x10 |] %274
V:7
 x10 | x10 | x5[K:treble] x5 |[K:bass] x10 | x10 | x10 | x10 | x10 | x10 | x6[K:treble] x7/2 | %10
[K:bass] x401/40 | x5[K:treble] x5 |[K:bass] x10 | x10 | x10 | x10 | x8 x !tenuto!x | x10 || %18
[K:Ab] x8 x7/4 x/8x/8 | x8 x2 | x8 x7/4 x/8x/8 | x8 x7/4 x/4 | x/8x/8x/8 x/8 x x/ x8 | %23
 x8 x7/4 x/4 | x x x8 | x/8x/8x/8 x3/2 x/8 x6 x7/4 x/4 | x x x8 | x/8x/8x/8 x3/2 x/8 x8 | %28
 x4 x/8x/8x/8 x3/2 x/8 x4 | x10 | x10 ||[K:B][K:bass]z/(xA,/ E/) z/ z z2 z4 | %32
 x2 z/ (!tenuto!A,D/ E(D/G/)) G2 (D,A,/D/) | x10 | x10 | x10 | x10 | x10 | x10 | x10 | %40
 x5[K:treble] x5 |[K:bass] x10 | x10 | x10 | x10 | x10 |][K:E][M:2/2] x8 | x8 | x8 | x8 | x8 | x8 | %52
 x8 | x8 | x8 | x8 | x8 | x8 | x8 | x8 | x8 | x8 | x8 | x8 | x8 | x8 | x8 | x8 | x8 | x8 | x8 | %71
 x8 | x8 | x8 | x8 | x8 | x8 ||[K:C] x8 | x8 | x8 | x8 | x8 | x8 | x2[K:treble] x6 | x8 | x8 | x8 | %87
 x8 | x8 | x8 | x8 |[K:bass] x8 | x8 | x8 | x8 | x8 | x8 | x8 |[K:treble] x8 | x8 | x8 | %101
 x6[K:bass] x2 |[K:treble] x8 | x8 | x8 | x8 | x8 | x8 | x8 | x8 | x8 | x8 | x8 | x8 | x8 | x8 | %116
 x8 | x8 | x8 | x8 | x8 | x15/2!8vb(! x/!8vb)! ||[K:E][K:bass] x8 | x8 | x8 | x8 | x8 | x8 | x8 | %129
 x8 | x8 | x8 | x8 | x8 | x8 | x8 | x8 | x8 | x8 | x8 | x8 | x8 | x8 | x8 | x8 | x8 | x8 | x8 | %148
 x8 | x8 | x4[K:treble] x4 | x8 ||[K:bass] x8 | x8 | x8 | x8 | x8 | x8 | x8 | x8 | x8 | x8 | x8 | %163
 x8 | x8 | x8 | x8 | x8 | x8 | x8 | x8 | x8 | x4[K:treble] x4 | x8 |[K:bass] x8 | x8 | x8 | x8 | %178
 x8 | x8 | x8 | x8 | x8 | x8 | x8 | x8 | x8 | x8 | x8 | x8 | x8 | x8 || %192
[K:C#][M:8/4] x4[K:treble] x12[K:bass] x4[K:treble] x4 | %193
[K:bass] x23/2[K:treble] x2[K:bass] x7/2[K:treble] x6 | %194
[K:bass] x4[K:treble] x19/2[K:bass] x7/2[K:treble] x2[K:bass] x7/2[K:treble] x6 | %195
[K:bass] x7/2[K:treble] x8[K:bass] x4[K:treble] x8 |[K:bass] x4[K:treble] x8[K:bass] x8 | x16 | %198
 x27 | x27 | x38 |[M:12/4] x24 ||[K:E][M:2/2] x8 | x8 | x8 | x8 | x8 | x8 | x8 | x8 | x8 | x8 | %212
 x8 | x8 | x8 | x8 | x8 | x8 | x4[K:treble] x4 | x8 | x8 | x8 | x8 | x4[K:bass] x4 | %224
[K:treble] x4!8va(! x4!8va)! |][K:A][M:5/4] x10 | x10 | x10 | x10 | (B A3-) A6 | x10 | x10 | x10 | %233
 x10 |[K:bass] x10 | x10 | x41/4 | x41/4 | x41/4 | x41/4 |[K:treble] x21/2 | x10 | x10 | x10 | %244
[M:7/4] x14 |[M:5/4] x10 | x10 | x10 | x10 | x10 | x10 ||[K:F#] x21/2 | x10 | x10 | x10 | x10 | %256
 x10 | x10 | x10 | x10 | x10 | x11 | x10 | x10 | x11 | x10 | x10 ||[K:A] x10 | x10 | x10 | x10 | %271
 x10 | x10 | x10 |] %274
V:8
 x10 | x10 | x5[K:treble] x5 |[K:bass] x10 | x10 | x10 | x10 | x10 | x10 | x6[K:treble] x7/2 | %10
[K:bass] x401/40 | x5[K:treble] x5 |[K:bass] x10 | x10 | x10 | x10 | x10 | x10 ||[K:Ab] x10 | x10 | %20
 x10 | x10 | x10 | x10 | x10 | x10 | x10 | x10 | x10 | x10 | x8 x7/4 x/8 x/8 || %31
[K:B][K:bass] x/8x/8 x/4 x/ x z8 | x8 x7/4 x/4- | x10 | x10 | x10 | x10 | x10 | x10 | x10 | %40
 x5[K:treble] x5 |[K:bass] x10 | x10 | x10 | x10 | x10 |][K:E][M:2/2] x8 | x8 | x8 | x8 | x8 | x8 | %52
 x8 | x8 | x8 | x8 | x8 | x8 | x8 | x8 | x8 | x8 | x8 | x8 | x8 | x8 | x8 | x8 | x8 | x8 | x8 | %71
 x8 | x8 | x8 | x8 | x8 | x8 ||[K:C] x8 | x8 | x8 | x8 | x8 | x8 | x2[K:treble] x6 | x8 | x8 | x8 | %87
 x8 | x8 | x8 | x8 |[K:bass] x8 | x8 | x8 | x8 | x8 | x8 | x8 |[K:treble] x8 | x8 | x8 | %101
 x6[K:bass] x2 |[K:treble] x8 | x8 | x8 | x8 | x8 | x8 | x8 | x8 | x8 | x8 | x8 | x8 | x8 | x8 | %116
 x8 | x8 | x8 | x8 | x8 | x15/2!8vb(! x/!8vb)! ||[K:E][K:bass] x8 | x8 | x8 | x8 | x8 | x8 | x8 | %129
 x8 | x8 | x8 | x8 | x8 | x8 | x8 | x8 | x8 | x8 | x8 | x8 | x8 | x8 | x8 | x8 | x8 | x8 | x8 | %148
 x8 | x8 | x4[K:treble] x4 | x8 ||[K:bass] x8 | x8 | x8 | x8 | x8 | x8 | x8 | x8 | x8 | x8 | x8 | %163
 x8 | x8 | x8 | x8 | x8 | x8 | x8 | x8 | x8 | x4[K:treble] x4 | x8 |[K:bass] x8 | x8 | x8 | x8 | %178
 x8 | x8 | x8 | x8 | x8 | x8 | x8 | x8 | x8 | x8 | x8 | x8 | x8 | x8 || %192
[K:C#][M:8/4] x4[K:treble] x12[K:bass] x4[K:treble] x4 | %193
[K:bass] x23/2[K:treble] x2[K:bass] x7/2[K:treble] x6 | %194
[K:bass] x4[K:treble] x19/2[K:bass] x7/2[K:treble] x2[K:bass] x7/2[K:treble] x6 | %195
[K:bass] x7/2[K:treble] x8[K:bass] x4[K:treble] x8 |[K:bass] x4[K:treble] x8[K:bass] x8 | x16 | %198
 x27 | x27 | x38 |[M:12/4] x24 ||[K:E][M:2/2] x8 | x8 | x8 | x8 | x8 | x8 | x8 | x8 | x8 | x8 | %212
 x8 | x8 | x8 | x8 | x8 | x8 | x4[K:treble] x4 | x8 | x8 | x8 | x8 | x4[K:bass] x4 | %224
[K:treble] x4!8va(! x4!8va)! |][K:A][M:5/4] x10 | x10 | x10 | x10 | x10 | x10 | x10 | x10 | x10 | %234
[K:bass] x10 | x10 | x41/4 | x41/4 | x41/4 | x41/4 |[K:treble] x21/2 | x10 | x10 | x10 | %244
[M:7/4] x14 |[M:5/4] x10 | x10 | x10 | x10 | x10 | x10 ||[K:F#] x21/2 | x10 | x10 | x10 | x10 | %256
 x10 | x10 | x10 | x10 | x10 | x11 | x10 | x10 | x11 | x10 | x10 ||[K:A] x10 | x10 | x10 | x10 | %271
 x10 | x10 | x10 |] %274
V:9
 x10 | x10 | x10 | x10 | x10 | x10 | x10 | x10 | x10 | x10 | x401/40 | x10 | x10 | x10 | x10 | %15
 x10 | x10 | x10 ||[K:Ab] x10 | x10 | x10 | x10 | x10 | x10 | x10 | x10 | x10 | x10 | x10 | x10 | %30
 x10 ||[K:B] x10 | x10 | x10 | x10 | x10 | x10 | x10 | x10 | x10 | x10 | x10 | x10 | x10 | x10 | %45
 x10 |][K:E][M:2/2] x8 | x8 | x8 | x8 | x8 | x8 | x8 | x8 | x8 | x8 | x8 | x8 | x8 | x8 | x8 | x8 | %62
 x8 | x8 | x8 | x8 | x8 | x8 | x8 | x8 | x8 | x8 | x8 | x8 | x8 | x8 | x8 ||[K:C] x8 | x8 | x8 | %80
 x8 | x8 | x8 | x8 | x8 | x8 | x8 | x8 | x8 | x8 | x8 | x8 | x8 | x8 | x8 | x8 | x8 | x8 | x8 | %99
 x8 | x8 | x8 | x8 | x8 | x8 | x8 | x8 | x8 | x8 | x8 | x8 | x8 | x8 | x8 | x8 | x8 | x8 | x8 | %118
 x8 | z6 z2 | z6 z2 | z6 z2 ||[K:E] x8 | z6 z2 | x8 | x8 | x8 | x8 | x8 | x8 | x8 | x8 | x8 | x8 | %134
 x8 | x8 | x8 | x8 | x8 | x8 | x8 | x8 | x8 | x8 | x8 | x8 | x8 | x8 | x8 | x8 | x8 | x8 || x8 | %153
 x8 | x8 | x8 | x8 | x8 | x8 | x8 | x8 | x8 | x8 | x8 | x8 | x8 | x8 | x8 | x8 | x8 | x8 | x8 | %172
 x8 | x8 | x8 | x8 | x8 | x8 | x8 | x8 | x8 | x8 | x8 | x8 | x8 | x8 | x8 | x8 | x8 | x8 | x8 | %191
 x8 ||[K:C#][M:8/4] x24 | x23 | x57/2 | x47/2 | x20 | x16 |[K:bass] x27 | x27 | x38 | %201
[M:12/4] x24 ||[K:E][M:2/2] x8 | x8 | x8 | x8 | x8 | x8 | x8 | x8 | x8 | x8 | x8 | x8 | x8 | x8 | %216
 x8 | x8 | x8 | x8 | x8 | x8 | x8 | x8 | x8 |][K:A][M:5/4][K:treble] C8- C2 | C8- C2 | C8- C2 | %228
 C8- C2 | x4[K:bass] x6 | x10 | x10 | x10 | x10 | x10 | x4 [F,,,F,,]4 (C,,/D,,/C,,) | x41/4 | %237
 x41/4 | x/4 x4- x6 | x/4{/[B,,,B,,]} [F,A,]8 z2 | (3x/4x/4x/4 x2 x2 x4 x2 | x10 | x10 | x10 | %244
[M:7/4] x14 |[M:5/4] x10 | x4[K:treble] x5/2[K:bass] x7/2 | x4[K:treble] x3[K:bass] x3 | x10 | %249
 x10 | x10 ||[K:F#] x/ !arpeggio![C,,A,,] z z2 z4 z2 | C,4- C,6 | C,4- C,6 | x10 | %255
 C,4[K:treble] (c/F/D/F/D/C/[K:bass]F,/C,/ F,,2) | C,4[K:treble] x4[K:bass] x2 | %257
 C,4[K:treble] (d/B/E/G/ E/D/[K:bass]B,/C,/- C,2) | %258
 F,7/2 F,/ F,[F,,F,][F,,F,][F,,F,] [F,,,F,,]>[F,,,F,,] | [F,,,F,,]4 z4 z2 | x10 | x11 | x10 | x10 | %264
 x11 | x10 | x10 ||[K:A] x10 | x10 | x10 | x10 | x10 | x10 | x10 |] %274

